/* XPM */
static char *close_pressed[] = {
"30 30 13 1",
". c #323030",
"# c #572A2F",
"a c #8F202D",
"b c #B4192C",
"c c #C7162B",
"d c #4E2B2F",
"e c #A21C2C",
"f c #BE182B",
"g c #D24253",
"h c #EAA8B0",
"i c #CA2538",
"j c #FFFFFF",
"k c #F4D3D7",
"..............................",
"..............................",
"..............................",
"..............................",
"..............................",
"..............................",
"...........#abccba#...........",
".........decccccccced.........",
"........dfccccccccccfd........",
".......dfccccccccccccfd.......",
".......eccghiccccihgcce.......",
"......#ccchjkiccikjhccc#......",
"......acccikjkiikjkiccca......",
"......bccccikjkkjkiccccb......",
"......ccccccikjjkicccccc......",
"......ccccccikjjkicccccc......",
"......bccccikjkkjkiccccb......",
"......acccikjkiikjkiccca......",
"......#ccchjkiccikjhccc#......",
".......eccghiccccihgcce.......",
".......dfccccccccccccfd.......",
"........dfccccccccccfd........",
".........decccccccced.........",
"...........#abccba#...........",
"..............................",
"..............................",
"..............................",
"..............................",
"..............................",
".............................."
};
