/* XPM */
static char *close_prelight[] = {
"30 30 13 1",
". c #323030",
"# c #5E2B2D",
"a c #9F2328",
"b c #CA1E26",
"c c #E01B24",
"d c #532C2E",
"e c #B42027",
"f c #D51C25",
"g c #E6464D",
"h c #F3AAAD",
"i c #E22932",
"j c #FFFFFF",
"k c #F9D4D6",
"..............................",
"..............................",
"..............................",
"..............................",
"..............................",
"..............................",
"...........#abccba#...........",
".........decccccccced.........",
"........dfccccccccccfd........",
".......dfccccccccccccfd.......",
".......eccghiccccihgcce.......",
"......#ccchjkiccikjhccc#......",
"......acccikjkiikjkiccca......",
"......bccccikjkkjkiccccb......",
"......ccccccikjjkicccccc......",
"......ccccccikjjkicccccc......",
"......bccccikjkkjkiccccb......",
"......acccikjkiikjkiccca......",
"......#ccchjkiccikjhccc#......",
".......eccghiccccihgcce.......",
".......dfccccccccccccfd.......",
"........dfccccccccccfd........",
".........decccccccced.........",
"...........#abccba#...........",
"..............................",
"..............................",
"..............................",
"..............................",
"..............................",
".............................."
};
