/* XPM */
static char *hide_pressed[] = {
"30 30 13 1",
". c #323030",
"# c #323B60",
"a c #314BA7",
"b c #3156D7",
"c c #315BEF",
"d c #323854",
"e c #3150BF",
"f c #3158E3",
"g c #4B70F1",
"h c #98ADF7",
"i c #B2C2F9",
"j c #FFFFFF",
"k c #587AF2",
"..............................",
"..............................",
"..............................",
"..............................",
"..............................",
"..............................",
"...........#abccba#...........",
".........decccccccced.........",
"........dfccccccccccfd........",
".......dfccccccccccccfd.......",
".......ecccccccccccccce.......",
"......#cccccccccccccccc#......",
"......acccccccccccccccca......",
"......bccccccccccccccccb......",
"......ccccghhhhhhhhgcccc......",
"......ccccijjjjjjjjicccc......",
"......bccckhhhhhhhhkcccb......",
"......acccccccccccccccca......",
"......#cccccccccccccccc#......",
".......ecccccccccccccce.......",
".......dfccccccccccccfd.......",
"........dfccccccccccfd........",
".........decccccccced.........",
"...........#abccba#...........",
"..............................",
"..............................",
"..............................",
"..............................",
"..............................",
".............................."
};
