/* XPM */
static char *hide_inactive[] = {
"30 30 6 1",
". c #2B2929",
"# c #3B3938",
"a c #6C6864",
"b c #7D7873",
"c c #AEA79F",
"d c #44413F",
"..............................",
"..............................",
"..............................",
"..............................",
"..............................",
"..............................",
"..............................",
"..............................",
"..............................",
"..............................",
"..............................",
"..............................",
"..............................",
"..............................",
"..........#aaaaaaaa#..........",
"..........bccccccccb..........",
"..........daaaaaaaad..........",
"..............................",
"..............................",
"..............................",
"..............................",
"..............................",
"..............................",
"..............................",
"..............................",
"..............................",
"..............................",
"..............................",
"..............................",
".............................."
};
