/* XPM */
static char *hide_active[] = {
"30 30 13 1",
". c #323030",
"# c #373535",
"a c #3E3C3C",
"b c #434141",
"c c #454343",
"d c #363434",
"e c #403E3E",
"f c #444242",
"g c #5B5A5A",
"h c #9E9D9D",
"i c #B4B4B4",
"j c #F7F7F7",
"k c #666565",
"..............................",
"..............................",
"..............................",
"..............................",
"..............................",
"..............................",
"...........#abccba#...........",
".........decccccccced.........",
"........dfccccccccccfd........",
".......dfccccccccccccfd.......",
".......ecccccccccccccce.......",
"......#cccccccccccccccc#......",
"......acccccccccccccccca......",
"......bccccccccccccccccb......",
"......ccccghhhhhhhhgcccc......",
"......ccccijjjjjjjjicccc......",
"......bccckhhhhhhhhkcccb......",
"......acccccccccccccccca......",
"......#cccccccccccccccc#......",
".......ecccccccccccccce.......",
".......dfccccccccccccfd.......",
"........dfccccccccccfd........",
".........decccccccced.........",
"...........#abccba#...........",
"..............................",
"..............................",
"..............................",
"..............................",
"..............................",
".............................."
};
