/* XPM */
static char *hide_prelight[] = {
"30 30 13 1",
". c #323030",
"# c #3D3B3B",
"a c #4D4C4C",
"b c #585757",
"c c #5D5D5D",
"d c #3A3838",
"e c #525252",
"f c #5A5A5A",
"g c #707070",
"h c #AAAAAA",
"i c #BDBDBD",
"j c #F7F7F7",
"k c #7A7A7A",
"..............................",
"..............................",
"..............................",
"..............................",
"..............................",
"..............................",
"...........#abccba#...........",
".........decccccccced.........",
"........dfccccccccccfd........",
".......dfccccccccccccfd.......",
".......ecccccccccccccce.......",
"......#cccccccccccccccc#......",
"......acccccccccccccccca......",
"......bccccccccccccccccb......",
"......ccccghhhhhhhhgcccc......",
"......ccccijjjjjjjjicccc......",
"......bccckhhhhhhhhkcccb......",
"......acccccccccccccccca......",
"......#cccccccccccccccc#......",
".......ecccccccccccccce.......",
".......dfccccccccccccfd.......",
"........dfccccccccccfd........",
".........decccccccced.........",
"...........#abccba#...........",
"..............................",
"..............................",
"..............................",
"..............................",
"..............................",
".............................."
};
