/* XPM */
static char *maximize_toggled_prelight[] = {
"30 30 17 1",
". c #323030",
"# c #3D3B3B",
"a c #4D4C4C",
"b c #585757",
"c c #5D5D5D",
"d c #3A3838",
"e c #525252",
"f c #5A5A5A",
"g c #707070",
"h c #D0D0D0",
"i c #AAAAAA",
"j c #7A7A7A",
"k c #F7F7F7",
"l c #848484",
"m c #A0A0A0",
"n c #DADADA",
"o c #EDEDED",
"..............................",
"..............................",
"..............................",
"..............................",
"..............................",
"..............................",
"...........#abccba#...........",
".........decccccccced.........",
"........dfccccccccccfd........",
".......dfccccccccccccfd.......",
".......eccccghhhhhhicce.......",
"......#cccccjkkkkkkhccc#......",
"......acccgllmiimmkhccca......",
"......bccchkkkkkkmkhcccb......",
"......cccchknhhokikhcccc......",
"......cccchklcchkikhcccc......",
"......bccchklcchkmkhcccb......",
"......accchkmllnkljgccca......",
"......#ccchkkkkkklccccc#......",
".......eccihhhhhhgcccce.......",
".......dfccccccccccccfd.......",
"........dfccccccccccfd........",
".........decccccccced.........",
"...........#abccba#...........",
"..............................",
"..............................",
"..............................",
"..............................",
"..............................",
".............................."
};
