/* XPM */
static char *maximize_toggled_inactive[] = {
"30 30 10 1",
". c #2B2929",
"# c #3B3938",
"a c #8D8882",
"b c #6C6864",
"c c #44413F",
"d c #AEA79F",
"e c #4C4846",
"f c #64605D",
"g c #958F89",
"h c #A69F98",
"..............................",
"..............................",
"..............................",
"..............................",
"..............................",
"..............................",
"..............................",
"..............................",
"..............................",
"..............................",
"............#aaaaaab..........",
"............cdddddda..........",
"..........#eefbbffda..........",
"..........addddddfda..........",
"..........adgaahdbda..........",
"..........ade..adbda..........",
"..........ade..adfda..........",
"..........adfeegdec#..........",
"..........adddddde............",
"..........baaaaaa#............",
"..............................",
"..............................",
"..............................",
"..............................",
"..............................",
"..............................",
"..............................",
"..............................",
"..............................",
".............................."
};
