/* XPM */
static char *maximize_inactive[] = {
"30 30 7 1",
". c #2B2929",
"# c #333130",
"a c #64605D",
"b c #6C6864",
"c c #AEA79F",
"d c #A69F98",
"e c #8D8882",
"..............................",
"..............................",
"..............................",
"..............................",
"..............................",
"..............................",
"..............................",
"..............................",
"..............................",
"..............................",
"..........#abbbbbba#..........",
"..........acccccccca..........",
"..........bcdeeeedcb..........",
"..........bce....ecb..........",
"..........bce....ecb..........",
"..........bce....ecb..........",
"..........bce....ecb..........",
"..........bcdeeeedcb..........",
"..........acccccccca..........",
"..........#abbbbbba#..........",
"..............................",
"..............................",
"..............................",
"..............................",
"..............................",
"..............................",
"..............................",
"..............................",
"..............................",
".............................."
};
