/* XPM */
static char *maximize_prelight[] = {
"30 30 14 1",
". c #323030",
"# c #3D3B3B",
"a c #4D4C4C",
"b c #585757",
"c c #5D5D5D",
"d c #3A3838",
"e c #525252",
"f c #5A5A5A",
"g c #676767",
"h c #A0A0A0",
"i c #AAAAAA",
"j c #F7F7F7",
"k c #EDEDED",
"l c #D0D0D0",
"..............................",
"..............................",
"..............................",
"..............................",
"..............................",
"..............................",
"...........#abccba#...........",
".........decccccccced.........",
"........dfccccccccccfd........",
".......dfccccccccccccfd.......",
".......eccghiiiiiihgcce.......",
"......#ccchjjjjjjjjhccc#......",
"......acccijkllllkjiccca......",
"......bcccijlccccljicccb......",
"......ccccijlccccljicccc......",
"......ccccijlccccljicccc......",
"......bcccijlccccljicccb......",
"......acccijkllllkjiccca......",
"......#ccchjjjjjjjjhccc#......",
".......eccghiiiiiihgcce.......",
".......dfccccccccccccfd.......",
"........dfccccccccccfd........",
".........decccccccced.........",
"...........#abccba#...........",
"..............................",
"..............................",
"..............................",
"..............................",
"..............................",
".............................."
};
