/* XPM */
static char *maximize_active[] = {
"30 30 14 1",
". c #323030",
"# c #373535",
"a c #3E3C3C",
"b c #434141",
"c c #454343",
"d c #363434",
"e c #403E3E",
"f c #444242",
"g c #504E4E",
"h c #939292",
"i c #9E9D9D",
"j c #F7F7F7",
"k c #ECECEC",
"l c #CACACA",
"..............................",
"..............................",
"..............................",
"..............................",
"..............................",
"..............................",
"...........#abccba#...........",
".........decccccccced.........",
"........dfccccccccccfd........",
".......dfccccccccccccfd.......",
".......eccghiiiiiihgcce.......",
"......#ccchjjjjjjjjhccc#......",
"......acccijkllllkjiccca......",
"......bcccijlccccljicccb......",
"......ccccijlccccljicccc......",
"......ccccijlccccljicccc......",
"......bcccijlccccljicccb......",
"......acccijkllllkjiccca......",
"......#ccchjjjjjjjjhccc#......",
".......eccghiiiiiihgcce.......",
".......dfccccccccccccfd.......",
"........dfccccccccccfd........",
".........decccccccced.........",
"...........#abccba#...........",
"..............................",
"..............................",
"..............................",
"..............................",
"..............................",
".............................."
};
