/* XPM */
static char *maximize_toggled_active[] = {
"30 30 17 1",
". c #323030",
"# c #373535",
"a c #3E3C3C",
"b c #434141",
"c c #454343",
"d c #363434",
"e c #403E3E",
"f c #444242",
"g c #5B5A5A",
"h c #CACACA",
"i c #9E9D9D",
"j c #666565",
"k c #F7F7F7",
"l c #727070",
"m c #939292",
"n c #D6D5D5",
"o c #ECECEC",
"..............................",
"..............................",
"..............................",
"..............................",
"..............................",
"..............................",
"...........#abccba#...........",
".........decccccccced.........",
"........dfccccccccccfd........",
".......dfccccccccccccfd.......",
".......eccccghhhhhhicce.......",
"......#cccccjkkkkkkhccc#......",
"......acccgllmiimmkhccca......",
"......bccchkkkkkkmkhcccb......",
"......cccchknhhokikhcccc......",
"......cccchklcchkikhcccc......",
"......bccchklcchkmkhcccb......",
"......accchkmllnkljgccca......",
"......#ccchkkkkkklccccc#......",
".......eccihhhhhhgcccce.......",
".......dfccccccccccccfd.......",
"........dfccccccccccfd........",
".........decccccccced.........",
"...........#abccba#...........",
"..............................",
"..............................",
"..............................",
"..............................",
"..............................",
".............................."
};
