/* XPM */
static char *maximize_toggled_pressed[] = {
"30 30 17 1",
". c #323030",
"# c #323B60",
"a c #314BA7",
"b c #3156D7",
"c c #315BEF",
"d c #323854",
"e c #3150BF",
"f c #3158E3",
"g c #4B70F1",
"h c #CCD6FB",
"i c #98ADF7",
"j c #587AF2",
"k c #FFFFFF",
"l c #6484F3",
"m c #8BA3F6",
"n c #D8E0FC",
"o c #F2F5FE",
"..............................",
"..............................",
"..............................",
"..............................",
"..............................",
"..............................",
"...........#abccba#...........",
".........decccccccced.........",
"........dfccccccccccfd........",
".......dfccccccccccccfd.......",
".......eccccghhhhhhicce.......",
"......#cccccjkkkkkkhccc#......",
"......acccgllmiimmkhccca......",
"......bccchkkkkkkmkhcccb......",
"......cccchknhhokikhcccc......",
"......cccchklcchkikhcccc......",
"......bccchklcchkmkhcccb......",
"......accchkmllnkljgccca......",
"......#ccchkkkkkklccccc#......",
".......eccihhhhhhgcccce.......",
".......dfccccccccccccfd.......",
"........dfccccccccccfd........",
".........decccccccced.........",
"...........#abccba#...........",
"..............................",
"..............................",
"..............................",
"..............................",
"..............................",
".............................."
};
