/* XPM */
static char *menu_inactive[] = {
"30 30 10 1",
". c #2B2929",
"# c #54504E",
"a c #8D8882",
"b c #7D7873",
"c c #AEA79F",
"d c #44413F",
"e c #75706B",
"f c #4C4846",
"g c #A69F98",
"h c #6C6864",
"..............................",
"..............................",
"..............................",
"..............................",
"..............................",
"..............................",
"..............................",
"..............................",
"..............................",
"..............................",
"..............................",
"..............................",
"..........#aaaaaaaa#..........",
"..........bccccccccb..........",
"..........dccccccccd..........",
"..........ecccccccce..........",
"..........fgccccccgf..........",
"..........bccccccccb..........",
"..........dhhhhhhhhd..........",
"..............................",
"..............................",
"..............................",
"..............................",
"..............................",
"..............................",
"..............................",
"..............................",
"..............................",
"..............................",
".............................."
};
