/* XPM */
static char *menu_pressed[] = {
"30 30 17 1",
". c #323030",
"# c #323B60",
"a c #314BA7",
"b c #3156D7",
"c c #315BEF",
"d c #323854",
"e c #3150BF",
"f c #3158E3",
"g c #718EF4",
"h c #CCD6FB",
"i c #B2C2F9",
"j c #FFFFFF",
"k c #587AF2",
"l c #A5B7F8",
"m c #6484F3",
"n c #F2F5FE",
"o c #98ADF7",
"..............................",
"..............................",
"..............................",
"..............................",
"..............................",
"..............................",
"...........#abccba#...........",
".........decccccccced.........",
"........dfccccccccccfd........",
".......dfccccccccccccfd.......",
".......ecccccccccccccce.......",
"......#cccccccccccccccc#......",
"......acccghhhhhhhhgccca......",
"......bcccijjjjjjjjicccb......",
"......cccckjjjjjjjjkcccc......",
"......ccccljjjjjjjjlcccc......",
"......bcccmnjjjjjjnmcccb......",
"......acccijjjjjjjjiccca......",
"......#ccckooooooookccc#......",
".......ecccccccccccccce.......",
".......dfccccccccccccfd.......",
"........dfccccccccccfd........",
".........decccccccced.........",
"...........#abccba#...........",
"..............................",
"..............................",
"..............................",
"..............................",
"..............................",
".............................."
};
