/* XPM */
static char *menu_prelight[] = {
"30 30 17 1",
". c #323030",
"# c #3D3B3B",
"a c #4D4C4C",
"b c #585757",
"c c #5D5D5D",
"d c #3A3838",
"e c #525252",
"f c #5A5A5A",
"g c #8D8D8D",
"h c #D0D0D0",
"i c #BDBDBD",
"j c #F7F7F7",
"k c #7A7A7A",
"l c #B4B4B4",
"m c #848484",
"n c #EDEDED",
"o c #AAAAAA",
"..............................",
"..............................",
"..............................",
"..............................",
"..............................",
"..............................",
"...........#abccba#...........",
".........decccccccced.........",
"........dfccccccccccfd........",
".......dfccccccccccccfd.......",
".......ecccccccccccccce.......",
"......#cccccccccccccccc#......",
"......acccghhhhhhhhgccca......",
"......bcccijjjjjjjjicccb......",
"......cccckjjjjjjjjkcccc......",
"......ccccljjjjjjjjlcccc......",
"......bcccmnjjjjjjnmcccb......",
"......acccijjjjjjjjiccca......",
"......#ccckooooooookccc#......",
".......ecccccccccccccce.......",
".......dfccccccccccccfd.......",
"........dfccccccccccfd........",
".........decccccccced.........",
"...........#abccba#...........",
"..............................",
"..............................",
"..............................",
"..............................",
"..............................",
".............................."
};
