/* XPM */
static char *shade_active[] = {
"30 30 18 1",
". c #323030",
"# c #373535",
"a c #3E3C3C",
"b c #434141",
"c c #454343",
"d c #363434",
"e c #403E3E",
"f c #444242",
"g c #504E4E",
"h c #BFBFBF",
"i c #D6D5D5",
"j c #F7F7F7",
"k c #666565",
"l c #E1E0E0",
"m c #ECECEC",
"n c #B4B4B4",
"o c #5B5A5A",
"p c #9E9D9D",
"..............................",
"..............................",
"..............................",
"..............................",
"..............................",
"..............................",
"...........#abccba#...........",
".........decccccccced.........",
"........dfccccccccccfd........",
".......dfccccccccccccfd.......",
".......ecccccccccccccce.......",
"......#cccccccccccccccc#......",
"......accccccghhgcccccca......",
"......bcccccgijjigcccccb......",
"......ccccckljmmjlkccccc......",
"......cccckmjlkkljmkcccc......",
"......bcccnjigccgijncccb......",
"......acccopgccccgpoccca......",
"......#cccccccccccccccc#......",
".......ecccccccccccccce.......",
".......dfccccccccccccfd.......",
"........dfccccccccccfd........",
".........decccccccced.........",
"...........#abccba#...........",
"..............................",
"..............................",
"..............................",
"..............................",
"..............................",
".............................."
};
