/* XPM */
static char *shade_toggled_active[] = {
"30 30 18 1",
". c #323030",
"# c #373535",
"a c #3E3C3C",
"b c #434141",
"c c #454343",
"d c #363434",
"e c #403E3E",
"f c #444242",
"g c #5B5A5A",
"h c #9E9D9D",
"i c #504E4E",
"j c #B4B4B4",
"k c #F7F7F7",
"l c #D6D5D5",
"m c #666565",
"n c #ECECEC",
"o c #E1E0E0",
"p c #BFBFBF",
"..............................",
"..............................",
"..............................",
"..............................",
"..............................",
"..............................",
"...........#abccba#...........",
".........decccccccced.........",
"........dfccccccccccfd........",
".......dfccccccccccccfd.......",
".......ecccccccccccccce.......",
"......#cccccccccccccccc#......",
"......acccghiccccihgccca......",
"......bcccjkliccilkjcccb......",
"......ccccmnkommoknmcccc......",
"......cccccmoknnkomccccc......",
"......bcccccilkklicccccb......",
"......accccccippicccccca......",
"......#cccccccccccccccc#......",
".......ecccccccccccccce.......",
".......dfccccccccccccfd.......",
"........dfccccccccccfd........",
".........decccccccced.........",
"...........#abccba#...........",
"..............................",
"..............................",
"..............................",
"..............................",
"..............................",
".............................."
};
