/* XPM */
static char *shade_toggled_prelight[] = {
"30 30 18 1",
". c #323030",
"# c #3D3B3B",
"a c #4D4C4C",
"b c #585757",
"c c #5D5D5D",
"d c #3A3838",
"e c #525252",
"f c #5A5A5A",
"g c #707070",
"h c #AAAAAA",
"i c #676767",
"j c #BDBDBD",
"k c #F7F7F7",
"l c #DADADA",
"m c #7A7A7A",
"n c #EDEDED",
"o c #E4E4E4",
"p c #C7C7C7",
"..............................",
"..............................",
"..............................",
"..............................",
"..............................",
"..............................",
"...........#abccba#...........",
".........decccccccced.........",
"........dfccccccccccfd........",
".......dfccccccccccccfd.......",
".......ecccccccccccccce.......",
"......#cccccccccccccccc#......",
"......acccghiccccihgccca......",
"......bcccjkliccilkjcccb......",
"......ccccmnkommoknmcccc......",
"......cccccmoknnkomccccc......",
"......bcccccilkklicccccb......",
"......accccccippicccccca......",
"......#cccccccccccccccc#......",
".......ecccccccccccccce.......",
".......dfccccccccccccfd.......",
"........dfccccccccccfd........",
".........decccccccced.........",
"...........#abccba#...........",
"..............................",
"..............................",
"..............................",
"..............................",
"..............................",
".............................."
};
