/* XPM */
static char *shade_pressed[] = {
"30 30 18 1",
". c #323030",
"# c #323B60",
"a c #314BA7",
"b c #3156D7",
"c c #315BEF",
"d c #323854",
"e c #3150BF",
"f c #3158E3",
"g c #3E65F0",
"h c #BFCCFA",
"i c #D8E0FC",
"j c #FFFFFF",
"k c #587AF2",
"l c #E5EAFD",
"m c #F2F5FE",
"n c #B2C2F9",
"o c #4B70F1",
"p c #98ADF7",
"..............................",
"..............................",
"..............................",
"..............................",
"..............................",
"..............................",
"...........#abccba#...........",
".........decccccccced.........",
"........dfccccccccccfd........",
".......dfccccccccccccfd.......",
".......ecccccccccccccce.......",
"......#cccccccccccccccc#......",
"......accccccghhgcccccca......",
"......bcccccgijjigcccccb......",
"......ccccckljmmjlkccccc......",
"......cccckmjlkkljmkcccc......",
"......bcccnjigccgijncccb......",
"......acccopgccccgpoccca......",
"......#cccccccccccccccc#......",
".......ecccccccccccccce.......",
".......dfccccccccccccfd.......",
"........dfccccccccccfd........",
".........decccccccced.........",
"...........#abccba#...........",
"..............................",
"..............................",
"..............................",
"..............................",
"..............................",
".............................."
};
