/* XPM */
static char *shade_inactive[] = {
"30 30 11 1",
". c #2B2929",
"# c #333130",
"a c #85807A",
"b c #958F89",
"c c #AEA79F",
"d c #44413F",
"e c #9E9790",
"f c #A69F98",
"g c #7D7873",
"h c #3B3938",
"i c #6C6864",
"..............................",
"..............................",
"..............................",
"..............................",
"..............................",
"..............................",
"..............................",
"..............................",
"..............................",
"..............................",
"..............................",
"..............................",
".............#aa#.............",
"............#bccb#............",
"...........decffced...........",
"..........dfceddecfd..........",
"..........gcb#..#bcg..........",
"..........hi#....#ih..........",
"..............................",
"..............................",
"..............................",
"..............................",
"..............................",
"..............................",
"..............................",
"..............................",
"..............................",
"..............................",
"..............................",
".............................."
};
