/* XPM */
static char *shade_toggled_inactive[] = {
"30 30 11 1",
". c #2B2929",
"# c #3B3938",
"a c #6C6864",
"b c #333130",
"c c #7D7873",
"d c #AEA79F",
"e c #958F89",
"f c #44413F",
"g c #A69F98",
"h c #9E9790",
"i c #85807A",
"..............................",
"..............................",
"..............................",
"..............................",
"..............................",
"..............................",
"..............................",
"..............................",
"..............................",
"..............................",
"..............................",
"..............................",
"..........#ab....ba#..........",
"..........cdeb..bedc..........",
"..........fgdhffhdgf..........",
"...........fhdggdhf...........",
"............beddeb............",
".............biib.............",
"..............................",
"..............................",
"..............................",
"..............................",
"..............................",
"..............................",
"..............................",
"..............................",
"..............................",
"..............................",
"..............................",
".............................."
};
