/* XPM */
static char *stick_toggled_inactive[] = {
"30 30 4 1",
". c #2B2929",
"# c #6C6864",
"a c #958F89",
"b c #AEA79F",
"..............................",
"..............................",
"..............................",
"..............................",
"..............................",
"..............................",
"..............................",
"..............................",
"..............................",
"..............................",
"..............................",
"..............................",
".............#aa#.............",
"............#bbbb#............",
"............abbbba............",
"............abbbba............",
"............#bbbb#............",
".............#aa#.............",
"..............................",
"..............................",
"..............................",
"..............................",
"..............................",
"..............................",
"..............................",
"..............................",
"..............................",
"..............................",
"..............................",
".............................."
};
