/* XPM */
static char *stick_inactive[] = {
"30 30 4 1",
". c #2B2929",
"# c #44413F",
"a c #85807A",
"b c #AEA79F",
"..............................",
"..............................",
"..............................",
"..............................",
"..............................",
"..............................",
"..............................",
"..............................",
"..............................",
"..............................",
"..............................",
"..............................",
"..............................",
".............#aa#.............",
".............abba.............",
".............abba.............",
".............#aa#.............",
"..............................",
"..............................",
"..............................",
"..............................",
"..............................",
"..............................",
"..............................",
"..............................",
"..............................",
"..............................",
"..............................",
"..............................",
".............................."
};
