/* XPM */
static char *stick_toggled_pressed[] = {
"30 30 11 1",
". c #323030",
"# c #323B60",
"a c #314BA7",
"b c #3156D7",
"c c #315BEF",
"d c #323854",
"e c #3150BF",
"f c #3158E3",
"g c #98ADF7",
"h c #D8E0FC",
"i c #FFFFFF",
"..............................",
"..............................",
"..............................",
"..............................",
"..............................",
"..............................",
"...........#abccba#...........",
".........decccccccced.........",
"........dfccccccccccfd........",
".......dfccccccccccccfd.......",
".......ecccccccccccccce.......",
"......#cccccccccccccccc#......",
"......accccccghhgcccccca......",
"......bcccccgiiiigcccccb......",
"......cccccchiiiihcccccc......",
"......cccccchiiiihcccccc......",
"......bcccccgiiiigcccccb......",
"......accccccghhgcccccca......",
"......#cccccccccccccccc#......",
".......ecccccccccccccce.......",
".......dfccccccccccccfd.......",
"........dfccccccccccfd........",
".........decccccccced.........",
"...........#abccba#...........",
"..............................",
"..............................",
"..............................",
"..............................",
"..............................",
".............................."
};
