/* XPM */
static char *stick_pressed[] = {
"30 30 11 1",
". c #323030",
"# c #323B60",
"a c #314BA7",
"b c #3156D7",
"c c #315BEF",
"d c #323854",
"e c #3150BF",
"f c #3158E3",
"g c #587AF2",
"h c #BFCCFA",
"i c #FFFFFF",
"..............................",
"..............................",
"..............................",
"..............................",
"..............................",
"..............................",
"...........#abccba#...........",
".........decccccccced.........",
"........dfccccccccccfd........",
".......dfccccccccccccfd.......",
".......ecccccccccccccce.......",
"......#cccccccccccccccc#......",
"......acccccccccccccccca......",
"......bccccccghhgccccccb......",
"......ccccccchiihccccccc......",
"......ccccccchiihccccccc......",
"......bccccccghhgccccccb......",
"......acccccccccccccccca......",
"......#cccccccccccccccc#......",
".......ecccccccccccccce.......",
".......dfccccccccccccfd.......",
"........dfccccccccccfd........",
".........decccccccced.........",
"...........#abccba#...........",
"..............................",
"..............................",
"..............................",
"..............................",
"..............................",
".............................."
};
