/* XPM */
static char *stick_active[] = {
"30 30 11 1",
". c #323030",
"# c #373535",
"a c #3E3C3C",
"b c #434141",
"c c #454343",
"d c #363434",
"e c #403E3E",
"f c #444242",
"g c #666565",
"h c #BFBFBF",
"i c #F7F7F7",
"..............................",
"..............................",
"..............................",
"..............................",
"..............................",
"..............................",
"...........#abccba#...........",
".........decccccccced.........",
"........dfccccccccccfd........",
".......dfccccccccccccfd.......",
".......ecccccccccccccce.......",
"......#cccccccccccccccc#......",
"......acccccccccccccccca......",
"......bccccccghhgccccccb......",
"......ccccccchiihccccccc......",
"......ccccccchiihccccccc......",
"......bccccccghhgccccccb......",
"......acccccccccccccccca......",
"......#cccccccccccccccc#......",
".......ecccccccccccccce.......",
".......dfccccccccccccfd.......",
"........dfccccccccccfd........",
".........decccccccced.........",
"...........#abccba#...........",
"..............................",
"..............................",
"..............................",
"..............................",
"..............................",
".............................."
};
