/* XPM */
static char *close_prelight[] = {
"30 30 13 1",
". c #1C1C1C",
"# c #4D1C1E",
"a c #961B21",
"b c #C81B23",
"c c #E01B24",
"d c #411C1E",
"e c #AF1B22",
"f c #D41B24",
"g c #E6464D",
"h c #F3AAAD",
"i c #E22932",
"j c #FFFFFF",
"k c #F9D4D6",
"..............................",
"..............................",
"..............................",
"..............................",
"..............................",
"..............................",
"...........#abccba#...........",
".........decccccccced.........",
"........dfccccccccccfd........",
".......dfccccccccccccfd.......",
".......eccghiccccihgcce.......",
"......#ccchjkiccikjhccc#......",
"......acccikjkiikjkiccca......",
"......bccccikjkkjkiccccb......",
"......ccccccikjjkicccccc......",
"......ccccccikjjkicccccc......",
"......bccccikjkkjkiccccb......",
"......acccikjkiikjkiccca......",
"......#ccchjkiccikjhccc#......",
".......eccghiccccihgcce.......",
".......dfccccccccccccfd.......",
"........dfccccccccccfd........",
".........decccccccced.........",
"...........#abccba#...........",
"..............................",
"..............................",
"..............................",
"..............................",
"..............................",
".............................."
};
