/* XPM */
static char *close_active[] = {
"30 30 13 1",
". c #1C1C1C",
"# c #451C1F",
"a c #821C24",
"b c #AC1C26",
"c c #C01C28",
"d c #3B1C1E",
"e c #971C25",
"f c #B61C27",
"g c #CC4750",
"h c #E7AAAE",
"i c #C42A35",
"j c #FFFFFF",
"k c #F3D4D7",
"..............................",
"..............................",
"..............................",
"..............................",
"..............................",
"..............................",
"...........#abccba#...........",
".........decccccccced.........",
"........dfccccccccccfd........",
".......dfccccccccccccfd.......",
".......eccghiccccihgcce.......",
"......#ccchjkiccikjhccc#......",
"......acccikjkiikjkiccca......",
"......bccccikjkkjkiccccb......",
"......ccccccikjjkicccccc......",
"......ccccccikjjkicccccc......",
"......bccccikjkkjkiccccb......",
"......acccikjkiikjkiccca......",
"......#ccchjkiccikjhccc#......",
".......eccghiccccihgcce.......",
".......dfccccccccccccfd.......",
"........dfccccccccccfd........",
".........decccccccced.........",
"...........#abccba#...........",
"..............................",
"..............................",
"..............................",
"..............................",
"..............................",
".............................."
};
