/* XPM */
static char *hide_active[] = {
"30 30 13 1",
". c #1C1C1C",
"# c #222222",
"a c #2A2A2A",
"b c #303030",
"c c #333333",
"d c #202020",
"e c #2D2D2D",
"f c #323232",
"g c #4B4B4B",
"h c #929292",
"i c #AAAAAA",
"j c #F2F2F2",
"k c #575757",
"..............................",
"..............................",
"..............................",
"..............................",
"..............................",
"..............................",
"...........#abccba#...........",
".........decccccccced.........",
"........dfccccccccccfd........",
".......dfccccccccccccfd.......",
".......ecccccccccccccce.......",
"......#cccccccccccccccc#......",
"......acccccccccccccccca......",
"......bccccccccccccccccb......",
"......ccccghhhhhhhhgcccc......",
"......ccccijjjjjjjjicccc......",
"......bccckhhhhhhhhkcccb......",
"......acccccccccccccccca......",
"......#cccccccccccccccc#......",
".......ecccccccccccccce.......",
".......dfccccccccccccfd.......",
"........dfccccccccccfd........",
".........decccccccced.........",
"...........#abccba#...........",
"..............................",
"..............................",
"..............................",
"..............................",
"..............................",
".............................."
};
