/* XPM */
static char *hide_pressed[] = {
"30 30 13 1",
". c #1C1C1C",
"# c #2C2C2C",
"a c #444444",
"b c #545454",
"c c #5C5C5C",
"d c #282828",
"e c #4C4C4C",
"f c #585858",
"g c #707070",
"h c #AEAEAE",
"i c #C2C2C2",
"j c #FFFFFF",
"k c #7B7B7B",
"..............................",
"..............................",
"..............................",
"..............................",
"..............................",
"..............................",
"...........#abccba#...........",
".........decccccccced.........",
"........dfccccccccccfd........",
".......dfccccccccccccfd.......",
".......ecccccccccccccce.......",
"......#cccccccccccccccc#......",
"......acccccccccccccccca......",
"......bccccccccccccccccb......",
"......ccccghhhhhhhhgcccc......",
"......ccccijjjjjjjjicccc......",
"......bccckhhhhhhhhkcccb......",
"......acccccccccccccccca......",
"......#cccccccccccccccc#......",
".......ecccccccccccccce.......",
".......dfccccccccccccfd.......",
"........dfccccccccccfd........",
".........decccccccced.........",
"...........#abccba#...........",
"..............................",
"..............................",
"..............................",
"..............................",
"..............................",
".............................."
};
