/* XPM */
static char *hide_inactive[] = {
"30 30 6 1",
". c #191919",
"# c #282828",
"a c #545454",
"b c #636363",
"c c #8F8F8F",
"d c #2F2F2F",
"..............................",
"..............................",
"..............................",
"..............................",
"..............................",
"..............................",
"..............................",
"..............................",
"..............................",
"..............................",
"..............................",
"..............................",
"..............................",
"..............................",
"..........#aaaaaaaa#..........",
"..........bccccccccb..........",
"..........daaaaaaaad..........",
"..............................",
"..............................",
"..............................",
"..............................",
"..............................",
"..............................",
"..............................",
"..............................",
"..............................",
"..............................",
"..............................",
"..............................",
".............................."
};
