/* XPM */
static char *maximize_toggled_inactive[] = {
"30 30 10 1",
". c #191919",
"# c #282828",
"a c #727272",
"b c #545454",
"c c #2F2F2F",
"d c #8F8F8F",
"e c #363636",
"f c #4D4D4D",
"g c #797979",
"h c #888888",
"..............................",
"..............................",
"..............................",
"..............................",
"..............................",
"..............................",
"..............................",
"..............................",
"..............................",
"..............................",
"............#aaaaaab..........",
"............cdddddda..........",
"..........#eefbbffda..........",
"..........addddddfda..........",
"..........adgaahdbda..........",
"..........ade..adbda..........",
"..........ade..adfda..........",
"..........adfeegdec#..........",
"..........adddddde............",
"..........baaaaaa#............",
"..............................",
"..............................",
"..............................",
"..............................",
"..............................",
"..............................",
"..............................",
"..............................",
"..............................",
".............................."
};
