/* XPM */
static char *maximize_toggled_prelight[] = {
"30 30 17 1",
". c #1C1C1C",
"# c #262626",
"a c #363636",
"b c #404040",
"c c #454545",
"d c #242424",
"e c #3B3B3B",
"f c #424242",
"g c #5B5B5B",
"h c #C7C7C7",
"i c #9C9C9C",
"j c #656565",
"k c #F2F2F2",
"l c #707070",
"m c #919191",
"n c #D2D2D2",
"o c #E7E7E7",
"..............................",
"..............................",
"..............................",
"..............................",
"..............................",
"..............................",
"...........#abccba#...........",
".........decccccccced.........",
"........dfccccccccccfd........",
".......dfccccccccccccfd.......",
".......eccccghhhhhhicce.......",
"......#cccccjkkkkkkhccc#......",
"......acccgllmiimmkhccca......",
"......bccchkkkkkkmkhcccb......",
"......cccchknhhokikhcccc......",
"......cccchklcchkikhcccc......",
"......bccchklcchkmkhcccb......",
"......accchkmllnkljgccca......",
"......#ccchkkkkkklccccc#......",
".......eccihhhhhhgcccce.......",
".......dfccccccccccccfd.......",
"........dfccccccccccfd........",
".........decccccccced.........",
"...........#abccba#...........",
"..............................",
"..............................",
"..............................",
"..............................",
"..............................",
".............................."
};
