/* XPM */
static char *maximize_toggled_pressed[] = {
"30 30 17 1",
". c #1C1C1C",
"# c #2C2C2C",
"a c #444444",
"b c #545454",
"c c #5C5C5C",
"d c #282828",
"e c #4C4C4C",
"f c #585858",
"g c #707070",
"h c #D6D6D6",
"i c #AEAEAE",
"j c #7B7B7B",
"k c #FFFFFF",
"l c #858585",
"m c #A3A3A3",
"n c #E0E0E0",
"o c #F5F5F5",
"..............................",
"..............................",
"..............................",
"..............................",
"..............................",
"..............................",
"...........#abccba#...........",
".........decccccccced.........",
"........dfccccccccccfd........",
".......dfccccccccccccfd.......",
".......eccccghhhhhhicce.......",
"......#cccccjkkkkkkhccc#......",
"......acccgllmiimmkhccca......",
"......bccchkkkkkkmkhcccb......",
"......cccchknhhokikhcccc......",
"......cccchklcchkikhcccc......",
"......bccchklcchkmkhcccb......",
"......accchkmllnkljgccca......",
"......#ccchkkkkkklccccc#......",
".......eccihhhhhhgcccce.......",
".......dfccccccccccccfd.......",
"........dfccccccccccfd........",
".........decccccccced.........",
"...........#abccba#...........",
"..............................",
"..............................",
"..............................",
"..............................",
"..............................",
".............................."
};
