/* XPM */
static char *maximize_toggled_active[] = {
"30 30 17 1",
". c #1C1C1C",
"# c #222222",
"a c #2A2A2A",
"b c #303030",
"c c #333333",
"d c #202020",
"e c #2D2D2D",
"f c #323232",
"g c #4B4B4B",
"h c #C2C2C2",
"i c #929292",
"j c #575757",
"k c #F2F2F2",
"l c #636363",
"m c #878787",
"n c #CECECE",
"o c #E6E6E6",
"..............................",
"..............................",
"..............................",
"..............................",
"..............................",
"..............................",
"...........#abccba#...........",
".........decccccccced.........",
"........dfccccccccccfd........",
".......dfccccccccccccfd.......",
".......eccccghhhhhhicce.......",
"......#cccccjkkkkkkhccc#......",
"......acccgllmiimmkhccca......",
"......bccchkkkkkkmkhcccb......",
"......cccchknhhokikhcccc......",
"......cccchklcchkikhcccc......",
"......bccchklcchkmkhcccb......",
"......accchkmllnkljgccca......",
"......#ccchkkkkkklccccc#......",
".......eccihhhhhhgcccce.......",
".......dfccccccccccccfd.......",
"........dfccccccccccfd........",
".........decccccccced.........",
"...........#abccba#...........",
"..............................",
"..............................",
"..............................",
"..............................",
"..............................",
".............................."
};
