/* XPM */
static char *maximize_prelight[] = {
"30 30 14 1",
". c #1C1C1C",
"# c #262626",
"a c #363636",
"b c #404040",
"c c #454545",
"d c #242424",
"e c #3B3B3B",
"f c #424242",
"g c #505050",
"h c #919191",
"i c #9C9C9C",
"j c #F2F2F2",
"k c #E7E7E7",
"l c #C7C7C7",
"..............................",
"..............................",
"..............................",
"..............................",
"..............................",
"..............................",
"...........#abccba#...........",
".........decccccccced.........",
"........dfccccccccccfd........",
".......dfccccccccccccfd.......",
".......eccghiiiiiihgcce.......",
"......#ccchjjjjjjjjhccc#......",
"......acccijkllllkjiccca......",
"......bcccijlccccljicccb......",
"......ccccijlccccljicccc......",
"......ccccijlccccljicccc......",
"......bcccijlccccljicccb......",
"......acccijkllllkjiccca......",
"......#ccchjjjjjjjjhccc#......",
".......eccghiiiiiihgcce.......",
".......dfccccccccccccfd.......",
"........dfccccccccccfd........",
".........decccccccced.........",
"...........#abccba#...........",
"..............................",
"..............................",
"..............................",
"..............................",
"..............................",
".............................."
};
