/* XPM */
static char *maximize_inactive[] = {
"30 30 7 1",
". c #191919",
"# c #202020",
"a c #4D4D4D",
"b c #545454",
"c c #8F8F8F",
"d c #888888",
"e c #727272",
"..............................",
"..............................",
"..............................",
"..............................",
"..............................",
"..............................",
"..............................",
"..............................",
"..............................",
"..............................",
"..........#abbbbbba#..........",
"..........acccccccca..........",
"..........bcdeeeedcb..........",
"..........bce....ecb..........",
"..........bce....ecb..........",
"..........bce....ecb..........",
"..........bce....ecb..........",
"..........bcdeeeedcb..........",
"..........acccccccca..........",
"..........#abbbbbba#..........",
"..............................",
"..............................",
"..............................",
"..............................",
"..............................",
"..............................",
"..............................",
"..............................",
"..............................",
".............................."
};
