/* XPM */
static char *menu_active[] = {
"30 30 17 1",
". c #1C1C1C",
"# c #222222",
"a c #2A2A2A",
"b c #303030",
"c c #333333",
"d c #202020",
"e c #2D2D2D",
"f c #323232",
"g c #6F6F6F",
"h c #C2C2C2",
"i c #AAAAAA",
"j c #F2F2F2",
"k c #575757",
"l c #9E9E9E",
"m c #636363",
"n c #E6E6E6",
"o c #929292",
"..............................",
"..............................",
"..............................",
"..............................",
"..............................",
"..............................",
"...........#abccba#...........",
".........decccccccced.........",
"........dfccccccccccfd........",
".......dfccccccccccccfd.......",
".......ecccccccccccccce.......",
"......#cccccccccccccccc#......",
"......acccghhhhhhhhgccca......",
"......bcccijjjjjjjjicccb......",
"......cccckjjjjjjjjkcccc......",
"......ccccljjjjjjjjlcccc......",
"......bcccmnjjjjjjnmcccb......",
"......acccijjjjjjjjiccca......",
"......#ccckooooooookccc#......",
".......ecccccccccccccce.......",
".......dfccccccccccccfd.......",
"........dfccccccccccfd........",
".........decccccccced.........",
"...........#abccba#...........",
"..............................",
"..............................",
"..............................",
"..............................",
"..............................",
".............................."
};
