/* XPM */
static char *menu_inactive[] = {
"30 30 10 1",
". c #191919",
"# c #3E3E3E",
"a c #727272",
"b c #636363",
"c c #8F8F8F",
"d c #2F2F2F",
"e c #5B5B5B",
"f c #363636",
"g c #888888",
"h c #545454",
"..............................",
"..............................",
"..............................",
"..............................",
"..............................",
"..............................",
"..............................",
"..............................",
"..............................",
"..............................",
"..............................",
"..............................",
"..........#aaaaaaaa#..........",
"..........bccccccccb..........",
"..........dccccccccd..........",
"..........ecccccccce..........",
"..........fgccccccgf..........",
"..........bccccccccb..........",
"..........dhhhhhhhhd..........",
"..............................",
"..............................",
"..............................",
"..............................",
"..............................",
"..............................",
"..............................",
"..............................",
"..............................",
"..............................",
".............................."
};
