/* XPM */
static char *shade_pressed[] = {
"30 30 18 1",
". c #1C1C1C",
"# c #2C2C2C",
"a c #444444",
"b c #545454",
"c c #5C5C5C",
"d c #282828",
"e c #4C4C4C",
"f c #585858",
"g c #666666",
"h c #CCCCCC",
"i c #E0E0E0",
"j c #FFFFFF",
"k c #7B7B7B",
"l c #EBEBEB",
"m c #F5F5F5",
"n c #C2C2C2",
"o c #707070",
"p c #AEAEAE",
"..............................",
"..............................",
"..............................",
"..............................",
"..............................",
"..............................",
"...........#abccba#...........",
".........decccccccced.........",
"........dfccccccccccfd........",
".......dfccccccccccccfd.......",
".......ecccccccccccccce.......",
"......#cccccccccccccccc#......",
"......accccccghhgcccccca......",
"......bcccccgijjigcccccb......",
"......ccccckljmmjlkccccc......",
"......cccckmjlkkljmkcccc......",
"......bcccnjigccgijncccb......",
"......acccopgccccgpoccca......",
"......#cccccccccccccccc#......",
".......ecccccccccccccce.......",
".......dfccccccccccccfd.......",
"........dfccccccccccfd........",
".........decccccccced.........",
"...........#abccba#...........",
"..............................",
"..............................",
"..............................",
"..............................",
"..............................",
".............................."
};
