/* XPM */
static char *shade_toggled_pressed[] = {
"30 30 18 1",
". c #1C1C1C",
"# c #2C2C2C",
"a c #444444",
"b c #545454",
"c c #5C5C5C",
"d c #282828",
"e c #4C4C4C",
"f c #585858",
"g c #707070",
"h c #AEAEAE",
"i c #666666",
"j c #C2C2C2",
"k c #FFFFFF",
"l c #E0E0E0",
"m c #7B7B7B",
"n c #F5F5F5",
"o c #EBEBEB",
"p c #CCCCCC",
"..............................",
"..............................",
"..............................",
"..............................",
"..............................",
"..............................",
"...........#abccba#...........",
".........decccccccced.........",
"........dfccccccccccfd........",
".......dfccccccccccccfd.......",
".......ecccccccccccccce.......",
"......#cccccccccccccccc#......",
"......acccghiccccihgccca......",
"......bcccjkliccilkjcccb......",
"......ccccmnkommoknmcccc......",
"......cccccmoknnkomccccc......",
"......bcccccilkklicccccb......",
"......accccccippicccccca......",
"......#cccccccccccccccc#......",
".......ecccccccccccccce.......",
".......dfccccccccccccfd.......",
"........dfccccccccccfd........",
".........decccccccced.........",
"...........#abccba#...........",
"..............................",
"..............................",
"..............................",
"..............................",
"..............................",
".............................."
};
