/* XPM */
static char *shade_toggled_inactive[] = {
"30 30 11 1",
". c #191919",
"# c #282828",
"a c #545454",
"b c #202020",
"c c #636363",
"d c #8F8F8F",
"e c #797979",
"f c #2F2F2F",
"g c #888888",
"h c #808080",
"i c #6A6A6A",
"..............................",
"..............................",
"..............................",
"..............................",
"..............................",
"..............................",
"..............................",
"..............................",
"..............................",
"..............................",
"..............................",
"..............................",
"..........#ab....ba#..........",
"..........cdeb..bedc..........",
"..........fgdhffhdgf..........",
"...........fhdggdhf...........",
"............beddeb............",
".............biib.............",
"..............................",
"..............................",
"..............................",
"..............................",
"..............................",
"..............................",
"..............................",
"..............................",
"..............................",
"..............................",
"..............................",
".............................."
};
