/* XPM */
static char *shade_toggled_active[] = {
"30 30 18 1",
". c #1C1C1C",
"# c #222222",
"a c #2A2A2A",
"b c #303030",
"c c #333333",
"d c #202020",
"e c #2D2D2D",
"f c #323232",
"g c #4B4B4B",
"h c #929292",
"i c #3F3F3F",
"j c #AAAAAA",
"k c #F2F2F2",
"l c #CECECE",
"m c #575757",
"n c #E6E6E6",
"o c #DADADA",
"p c #B6B6B6",
"..............................",
"..............................",
"..............................",
"..............................",
"..............................",
"..............................",
"...........#abccba#...........",
".........decccccccced.........",
"........dfccccccccccfd........",
".......dfccccccccccccfd.......",
".......ecccccccccccccce.......",
"......#cccccccccccccccc#......",
"......acccghiccccihgccca......",
"......bcccjkliccilkjcccb......",
"......ccccmnkommoknmcccc......",
"......cccccmoknnkomccccc......",
"......bcccccilkklicccccb......",
"......accccccippicccccca......",
"......#cccccccccccccccc#......",
".......ecccccccccccccce.......",
".......dfccccccccccccfd.......",
"........dfccccccccccfd........",
".........decccccccced.........",
"...........#abccba#...........",
"..............................",
"..............................",
"..............................",
"..............................",
"..............................",
".............................."
};
