/* XPM */
static char *shade_prelight[] = {
"30 30 18 1",
". c #1C1C1C",
"# c #262626",
"a c #363636",
"b c #404040",
"c c #454545",
"d c #242424",
"e c #3B3B3B",
"f c #424242",
"g c #505050",
"h c #BCBCBC",
"i c #D2D2D2",
"j c #F2F2F2",
"k c #656565",
"l c #DCDCDC",
"m c #E7E7E7",
"n c #B1B1B1",
"o c #5B5B5B",
"p c #9C9C9C",
"..............................",
"..............................",
"..............................",
"..............................",
"..............................",
"..............................",
"...........#abccba#...........",
".........decccccccced.........",
"........dfccccccccccfd........",
".......dfccccccccccccfd.......",
".......ecccccccccccccce.......",
"......#cccccccccccccccc#......",
"......accccccghhgcccccca......",
"......bcccccgijjigcccccb......",
"......ccccckljmmjlkccccc......",
"......cccckmjlkkljmkcccc......",
"......bcccnjigccgijncccb......",
"......acccopgccccgpoccca......",
"......#cccccccccccccccc#......",
".......ecccccccccccccce.......",
".......dfccccccccccccfd.......",
"........dfccccccccccfd........",
".........decccccccced.........",
"...........#abccba#...........",
"..............................",
"..............................",
"..............................",
"..............................",
"..............................",
".............................."
};
