/* XPM */
static char *shade_toggled_prelight[] = {
"30 30 18 1",
". c #1C1C1C",
"# c #262626",
"a c #363636",
"b c #404040",
"c c #454545",
"d c #242424",
"e c #3B3B3B",
"f c #424242",
"g c #5B5B5B",
"h c #9C9C9C",
"i c #505050",
"j c #B1B1B1",
"k c #F2F2F2",
"l c #D2D2D2",
"m c #656565",
"n c #E7E7E7",
"o c #DCDCDC",
"p c #BCBCBC",
"..............................",
"..............................",
"..............................",
"..............................",
"..............................",
"..............................",
"...........#abccba#...........",
".........decccccccced.........",
"........dfccccccccccfd........",
".......dfccccccccccccfd.......",
".......ecccccccccccccce.......",
"......#cccccccccccccccc#......",
"......acccghiccccihgccca......",
"......bcccjkliccilkjcccb......",
"......ccccmnkommoknmcccc......",
"......cccccmoknnkomccccc......",
"......bcccccilkklicccccb......",
"......accccccippicccccca......",
"......#cccccccccccccccc#......",
".......ecccccccccccccce.......",
".......dfccccccccccccfd.......",
"........dfccccccccccfd........",
".........decccccccced.........",
"...........#abccba#...........",
"..............................",
"..............................",
"..............................",
"..............................",
"..............................",
".............................."
};
