/* XPM */
static char *shade_inactive[] = {
"30 30 11 1",
". c #191919",
"# c #202020",
"a c #6A6A6A",
"b c #797979",
"c c #8F8F8F",
"d c #2F2F2F",
"e c #808080",
"f c #888888",
"g c #636363",
"h c #282828",
"i c #545454",
"..............................",
"..............................",
"..............................",
"..............................",
"..............................",
"..............................",
"..............................",
"..............................",
"..............................",
"..............................",
"..............................",
"..............................",
".............#aa#.............",
"............#bccb#............",
"...........decffced...........",
"..........dfceddecfd..........",
"..........gcb#..#bcg..........",
"..........hi#....#ih..........",
"..............................",
"..............................",
"..............................",
"..............................",
"..............................",
"..............................",
"..............................",
"..............................",
"..............................",
"..............................",
"..............................",
".............................."
};
