/* XPM */
static char *stick_toggled_active[] = {
"30 30 11 1",
". c #1C1C1C",
"# c #222222",
"a c #2A2A2A",
"b c #303030",
"c c #333333",
"d c #202020",
"e c #2D2D2D",
"f c #323232",
"g c #929292",
"h c #CECECE",
"i c #F2F2F2",
"..............................",
"..............................",
"..............................",
"..............................",
"..............................",
"..............................",
"...........#abccba#...........",
".........decccccccced.........",
"........dfccccccccccfd........",
".......dfccccccccccccfd.......",
".......ecccccccccccccce.......",
"......#cccccccccccccccc#......",
"......accccccghhgcccccca......",
"......bcccccgiiiigcccccb......",
"......cccccchiiiihcccccc......",
"......cccccchiiiihcccccc......",
"......bcccccgiiiigcccccb......",
"......accccccghhgcccccca......",
"......#cccccccccccccccc#......",
".......ecccccccccccccce.......",
".......dfccccccccccccfd.......",
"........dfccccccccccfd........",
".........decccccccced.........",
"...........#abccba#...........",
"..............................",
"..............................",
"..............................",
"..............................",
"..............................",
".............................."
};
