/* XPM */
static char *stick_pressed[] = {
"30 30 11 1",
". c #1C1C1C",
"# c #2C2C2C",
"a c #444444",
"b c #545454",
"c c #5C5C5C",
"d c #282828",
"e c #4C4C4C",
"f c #585858",
"g c #7B7B7B",
"h c #CCCCCC",
"i c #FFFFFF",
"..............................",
"..............................",
"..............................",
"..............................",
"..............................",
"..............................",
"...........#abccba#...........",
".........decccccccced.........",
"........dfccccccccccfd........",
".......dfccccccccccccfd.......",
".......ecccccccccccccce.......",
"......#cccccccccccccccc#......",
"......acccccccccccccccca......",
"......bccccccghhgccccccb......",
"......ccccccchiihccccccc......",
"......ccccccchiihccccccc......",
"......bccccccghhgccccccb......",
"......acccccccccccccccca......",
"......#cccccccccccccccc#......",
".......ecccccccccccccce.......",
".......dfccccccccccccfd.......",
"........dfccccccccccfd........",
".........decccccccced.........",
"...........#abccba#...........",
"..............................",
"..............................",
"..............................",
"..............................",
"..............................",
".............................."
};
