/* XPM */
static char *stick_toggled_prelight[] = {
"30 30 11 1",
". c #1C1C1C",
"# c #262626",
"a c #363636",
"b c #404040",
"c c #454545",
"d c #242424",
"e c #3B3B3B",
"f c #424242",
"g c #9C9C9C",
"h c #D2D2D2",
"i c #F2F2F2",
"..............................",
"..............................",
"..............................",
"..............................",
"..............................",
"..............................",
"...........#abccba#...........",
".........decccccccced.........",
"........dfccccccccccfd........",
".......dfccccccccccccfd.......",
".......ecccccccccccccce.......",
"......#cccccccccccccccc#......",
"......accccccghhgcccccca......",
"......bcccccgiiiigcccccb......",
"......cccccchiiiihcccccc......",
"......cccccchiiiihcccccc......",
"......bcccccgiiiigcccccb......",
"......accccccghhgcccccca......",
"......#cccccccccccccccc#......",
".......ecccccccccccccce.......",
".......dfccccccccccccfd.......",
"........dfccccccccccfd........",
".........decccccccced.........",
"...........#abccba#...........",
"..............................",
"..............................",
"..............................",
"..............................",
"..............................",
".............................."
};
