/* XPM */
static char *stick_inactive[] = {
"30 30 4 1",
". c #191919",
"# c #2F2F2F",
"a c #6A6A6A",
"b c #8F8F8F",
"..............................",
"..............................",
"..............................",
"..............................",
"..............................",
"..............................",
"..............................",
"..............................",
"..............................",
"..............................",
"..............................",
"..............................",
"..............................",
".............#aa#.............",
".............abba.............",
".............abba.............",
".............#aa#.............",
"..............................",
"..............................",
"..............................",
"..............................",
"..............................",
"..............................",
"..............................",
"..............................",
"..............................",
"..............................",
"..............................",
"..............................",
".............................."
};
