/* XPM */
static char *stick_toggled_inactive[] = {
"30 30 4 1",
". c #191919",
"# c #545454",
"a c #797979",
"b c #8F8F8F",
"..............................",
"..............................",
"..............................",
"..............................",
"..............................",
"..............................",
"..............................",
"..............................",
"..............................",
"..............................",
"..............................",
"..............................",
".............#aa#.............",
"............#bbbb#............",
"............abbbba............",
"............abbbba............",
"............#bbbb#............",
".............#aa#.............",
"..............................",
"..............................",
"..............................",
"..............................",
"..............................",
"..............................",
"..............................",
"..............................",
"..............................",
"..............................",
"..............................",
".............................."
};
