/* XPM */
static char *close_pressed[] = {
"30 30 13 1",
". c #2C2C2C",
"# c #5A3334",
"a c #A03E41",
"b c #CE4449",
"c c #E5484D",
"d c #4F3132",
"e c #B74145",
"f c #D9464B",
"g c #EA6A6E",
"h c #F5BABC",
"i c #E75358",
"j c #FFFFFF",
"k c #FADDDE",
"..............................",
"..............................",
"..............................",
"..............................",
"..............................",
"..............................",
"...........#abccba#...........",
".........decccccccced.........",
"........dfccccccccccfd........",
".......dfccccccccccccfd.......",
".......eccghiccccihgcce.......",
"......#ccchjkiccikjhccc#......",
"......acccikjkiikjkiccca......",
"......bccccikjkkjkiccccb......",
"......ccccccikjjkicccccc......",
"......ccccccikjjkicccccc......",
"......bccccikjkkjkiccccb......",
"......acccikjkiikjkiccca......",
"......#ccchjkiccikjhccc#......",
".......eccghiccccihgcce.......",
".......dfccccccccccccfd.......",
"........dfccccccccccfd........",
".........decccccccced.........",
"...........#abccba#...........",
"..............................",
"..............................",
"..............................",
"..............................",
"..............................",
".............................."
};
