/* XPM */
static char *close_prelight[] = {
"30 30 13 1",
". c #2C2C2C",
"# c #61393A",
"a c #B04C4E",
"b c #E5595C",
"c c #FF5F63",
"d c #543636",
"e c #CA5255",
"f c #F25C60",
"g c #FF7D80",
"h c #FFC3C4",
"i c #FF696D",
"j c #FFFFFF",
"k c #FFE1E2",
"..............................",
"..............................",
"..............................",
"..............................",
"..............................",
"..............................",
"...........#abccba#...........",
".........decccccccced.........",
"........dfccccccccccfd........",
".......dfccccccccccccfd.......",
".......eccghiccccihgcce.......",
"......#ccchjkiccikjhccc#......",
"......acccikjkiikjkiccca......",
"......bccccikjkkjkiccccb......",
"......ccccccikjjkicccccc......",
"......ccccccikjjkicccccc......",
"......bccccikjkkjkiccccb......",
"......acccikjkiikjkiccca......",
"......#ccchjkiccikjhccc#......",
".......eccghiccccihgcce.......",
".......dfccccccccccccfd.......",
"........dfccccccccccfd........",
".........decccccccced.........",
"...........#abccba#...........",
"..............................",
"..............................",
"..............................",
"..............................",
"..............................",
".............................."
};
