/* XPM */
static char *close_inactive[] = {
"30 30 13 1",
". c #242424",
"# c #2A2A2A",
"a c #343434",
"b c #3A3A3A",
"c c #3D3D3D",
"d c #292929",
"e c #373737",
"f c #3B3B3B",
"g c #4C4C4C",
"h c #6E6E6E",
"i c #424242",
"j c #8C8C8C",
"k c #7D7D7D",
"..............................",
"..............................",
"..............................",
"..............................",
"..............................",
"..............................",
"...........#abccba#...........",
".........decccccccced.........",
"........dfccccccccccfd........",
".......dfccccccccccccfd.......",
".......eccghiccccihgcce.......",
"......#ccchjkiccikjhccc#......",
"......acccikjkiikjkiccca......",
"......bccccikjkkjkiccccb......",
"......ccccccikjjkicccccc......",
"......ccccccikjjkicccccc......",
"......bccccikjkkjkiccccb......",
"......acccikjkiikjkiccca......",
"......#ccchjkiccikjhccc#......",
".......eccghiccccihgcce.......",
".......dfccccccccccccfd.......",
"........dfccccccccccfd........",
".........decccccccced.........",
"...........#abccba#...........",
"..............................",
"..............................",
"..............................",
"..............................",
"..............................",
".............................."
};
