/* XPM */
static char *hide_prelight[] = {
"30 30 13 1",
". c #2C2C2C",
"# c #353535",
"a c #424242",
"b c #4B4B4B",
"c c #4F4F4F",
"d c #333333",
"e c #464646",
"f c #4D4D4D",
"g c #626262",
"h c #9A9A9A",
"i c #ADADAD",
"j c #E6E6E6",
"k c #6B6B6B",
"..............................",
"..............................",
"..............................",
"..............................",
"..............................",
"..............................",
"...........#abccba#...........",
".........decccccccced.........",
"........dfccccccccccfd........",
".......dfccccccccccccfd.......",
".......ecccccccccccccce.......",
"......#cccccccccccccccc#......",
"......acccccccccccccccca......",
"......bccccccccccccccccb......",
"......ccccghhhhhhhhgcccc......",
"......ccccijjjjjjjjicccc......",
"......bccckhhhhhhhhkcccb......",
"......acccccccccccccccca......",
"......#cccccccccccccccc#......",
".......ecccccccccccccce.......",
".......dfccccccccccccfd.......",
"........dfccccccccccfd........",
".........decccccccced.........",
"...........#abccba#...........",
"..............................",
"..............................",
"..............................",
"..............................",
"..............................",
".............................."
};
