/* XPM */
static char *hide_inactive[] = {
"30 30 6 1",
". c #242424",
"# c #313131",
"a c #585858",
"b c #656565",
"c c #8C8C8C",
"d c #383838",
"..............................",
"..............................",
"..............................",
"..............................",
"..............................",
"..............................",
"..............................",
"..............................",
"..............................",
"..............................",
"..............................",
"..............................",
"..............................",
"..............................",
"..........#aaaaaaaa#..........",
"..........bccccccccb..........",
"..........daaaaaaaad..........",
"..............................",
"..............................",
"..............................",
"..............................",
"..............................",
"..............................",
"..............................",
"..............................",
"..............................",
"..............................",
"..............................",
"..............................",
".............................."
};
