/* XPM */
static char *hide_active[] = {
"30 30 13 1",
". c #2C2C2C",
"# c #303030",
"a c #373737",
"b c #3B3B3B",
"c c #3D3D3D",
"d c #2F2F2F",
"e c #393939",
"f c #3C3C3C",
"g c #525252",
"h c #929292",
"i c #A7A7A7",
"j c #E6E6E6",
"k c #5D5D5D",
"..............................",
"..............................",
"..............................",
"..............................",
"..............................",
"..............................",
"...........#abccba#...........",
".........decccccccced.........",
"........dfccccccccccfd........",
".......dfccccccccccccfd.......",
".......ecccccccccccccce.......",
"......#cccccccccccccccc#......",
"......acccccccccccccccca......",
"......bccccccccccccccccb......",
"......ccccghhhhhhhhgcccc......",
"......ccccijjjjjjjjicccc......",
"......bccckhhhhhhhhkcccb......",
"......acccccccccccccccca......",
"......#cccccccccccccccc#......",
".......ecccccccccccccce.......",
".......dfccccccccccccfd.......",
"........dfccccccccccfd........",
".........decccccccced.........",
"...........#abccba#...........",
"..............................",
"..............................",
"..............................",
"..............................",
"..............................",
".............................."
};
