/* XPM */
static char *hide_pressed[] = {
"30 30 13 1",
". c #2C2C2C",
"# c #2A4A48",
"a c #287871",
"b c #27978C",
"c c #26A69A",
"d c #2B4341",
"e c #28887E",
"f c #269E93",
"g c #41B1A7",
"h c #92D2CC",
"i c #AEDED9",
"j c #FFFFFF",
"k c #4FB7AD",
"..............................",
"..............................",
"..............................",
"..............................",
"..............................",
"..............................",
"...........#abccba#...........",
".........decccccccced.........",
"........dfccccccccccfd........",
".......dfccccccccccccfd.......",
".......ecccccccccccccce.......",
"......#cccccccccccccccc#......",
"......acccccccccccccccca......",
"......bccccccccccccccccb......",
"......ccccghhhhhhhhgcccc......",
"......ccccijjjjjjjjicccc......",
"......bccckhhhhhhhhkcccb......",
"......acccccccccccccccca......",
"......#cccccccccccccccc#......",
".......ecccccccccccccce.......",
".......dfccccccccccccfd.......",
"........dfccccccccccfd........",
".........decccccccced.........",
"...........#abccba#...........",
"..............................",
"..............................",
"..............................",
"..............................",
"..............................",
".............................."
};
