/* XPM */
static char *maximize_pressed[] = {
"30 30 14 1",
". c #2C2C2C",
"# c #2A4A48",
"a c #287871",
"b c #27978C",
"c c #26A69A",
"d c #2B4341",
"e c #28887E",
"f c #269E93",
"g c #34ACA0",
"h c #85CDC6",
"i c #92D2CC",
"j c #FFFFFF",
"k c #F1F9F9",
"l c #C9E9E6",
"..............................",
"..............................",
"..............................",
"..............................",
"..............................",
"..............................",
"...........#abccba#...........",
".........decccccccced.........",
"........dfccccccccccfd........",
".......dfccccccccccccfd.......",
".......eccghiiiiiihgcce.......",
"......#ccchjjjjjjjjhccc#......",
"......acccijkllllkjiccca......",
"......bcccijlccccljicccb......",
"......ccccijlccccljicccc......",
"......ccccijlccccljicccc......",
"......bcccijlccccljicccb......",
"......acccijkllllkjiccca......",
"......#ccchjjjjjjjjhccc#......",
".......eccghiiiiiihgcce.......",
".......dfccccccccccccfd.......",
"........dfccccccccccfd........",
".........decccccccced.........",
"...........#abccba#...........",
"..............................",
"..............................",
"..............................",
"..............................",
"..............................",
".............................."
};
