/* XPM */
static char *maximize_active[] = {
"30 30 14 1",
". c #2C2C2C",
"# c #303030",
"a c #373737",
"b c #3B3B3B",
"c c #3D3D3D",
"d c #2F2F2F",
"e c #393939",
"f c #3C3C3C",
"g c #484848",
"h c #878787",
"i c #929292",
"j c #E6E6E6",
"k c #DBDBDB",
"l c #BCBCBC",
"..............................",
"..............................",
"..............................",
"..............................",
"..............................",
"..............................",
"...........#abccba#...........",
".........decccccccced.........",
"........dfccccccccccfd........",
".......dfccccccccccccfd.......",
".......eccghiiiiiihgcce.......",
"......#ccchjjjjjjjjhccc#......",
"......acccijkllllkjiccca......",
"......bcccijlccccljicccb......",
"......ccccijlccccljicccc......",
"......ccccijlccccljicccc......",
"......bcccijlccccljicccb......",
"......acccijkllllkjiccca......",
"......#ccchjjjjjjjjhccc#......",
".......eccghiiiiiihgcce.......",
".......dfccccccccccccfd.......",
"........dfccccccccccfd........",
".........decccccccced.........",
"...........#abccba#...........",
"..............................",
"..............................",
"..............................",
"..............................",
"..............................",
".............................."
};
