/* XPM */
static char *maximize_inactive[] = {
"30 30 7 1",
". c #242424",
"# c #2A2A2A",
"a c #525252",
"b c #585858",
"c c #8C8C8C",
"d c #868686",
"e c #727272",
"..............................",
"..............................",
"..............................",
"..............................",
"..............................",
"..............................",
"..............................",
"..............................",
"..............................",
"..............................",
"..........#abbbbbba#..........",
"..........acccccccca..........",
"..........bcdeeeedcb..........",
"..........bce....ecb..........",
"..........bce....ecb..........",
"..........bce....ecb..........",
"..........bce....ecb..........",
"..........bcdeeeedcb..........",
"..........acccccccca..........",
"..........#abbbbbba#..........",
"..............................",
"..............................",
"..............................",
"..............................",
"..............................",
"..............................",
"..............................",
"..............................",
"..............................",
".............................."
};
