/* XPM */
static char *maximize_toggled_active[] = {
"30 30 17 1",
". c #2C2C2C",
"# c #303030",
"a c #373737",
"b c #3B3B3B",
"c c #3D3D3D",
"d c #2F2F2F",
"e c #393939",
"f c #3C3C3C",
"g c #525252",
"h c #BCBCBC",
"i c #929292",
"j c #5D5D5D",
"k c #E6E6E6",
"l c #676767",
"m c #878787",
"n c #C6C6C6",
"o c #DBDBDB",
"..............................",
"..............................",
"..............................",
"..............................",
"..............................",
"..............................",
"...........#abccba#...........",
".........decccccccced.........",
"........dfccccccccccfd........",
".......dfccccccccccccfd.......",
".......eccccghhhhhhicce.......",
"......#cccccjkkkkkkhccc#......",
"......acccgllmiimmkhccca......",
"......bccchkkkkkkmkhcccb......",
"......cccchknhhokikhcccc......",
"......cccchklcchkikhcccc......",
"......bccchklcchkmkhcccb......",
"......accchkmllnkljgccca......",
"......#ccchkkkkkklccccc#......",
".......eccihhhhhhgcccce.......",
".......dfccccccccccccfd.......",
"........dfccccccccccfd........",
".........decccccccced.........",
"...........#abccba#...........",
"..............................",
"..............................",
"..............................",
"..............................",
"..............................",
".............................."
};
