/* XPM */
static char *maximize_toggled_inactive[] = {
"30 30 10 1",
". c #242424",
"# c #313131",
"a c #727272",
"b c #585858",
"c c #383838",
"d c #8C8C8C",
"e c #3E3E3E",
"f c #525252",
"g c #787878",
"h c #868686",
"..............................",
"..............................",
"..............................",
"..............................",
"..............................",
"..............................",
"..............................",
"..............................",
"..............................",
"..............................",
"............#aaaaaab..........",
"............cdddddda..........",
"..........#eefbbffda..........",
"..........addddddfda..........",
"..........adgaahdbda..........",
"..........ade..adbda..........",
"..........ade..adfda..........",
"..........adfeegdec#..........",
"..........adddddde............",
"..........baaaaaa#............",
"..............................",
"..............................",
"..............................",
"..............................",
"..............................",
"..............................",
"..............................",
"..............................",
"..............................",
".............................."
};
