/* XPM */
static char *maximize_prelight[] = {
"30 30 14 1",
". c #2C2C2C",
"# c #353535",
"a c #424242",
"b c #4B4B4B",
"c c #4F4F4F",
"d c #333333",
"e c #464646",
"f c #4D4D4D",
"g c #585858",
"h c #919191",
"i c #9A9A9A",
"j c #E6E6E6",
"k c #DDDDDD",
"l c #C0C0C0",
"..............................",
"..............................",
"..............................",
"..............................",
"..............................",
"..............................",
"...........#abccba#...........",
".........decccccccced.........",
"........dfccccccccccfd........",
".......dfccccccccccccfd.......",
".......eccghiiiiiihgcce.......",
"......#ccchjjjjjjjjhccc#......",
"......acccijkllllkjiccca......",
"......bcccijlccccljicccb......",
"......ccccijlccccljicccc......",
"......ccccijlccccljicccc......",
"......bcccijlccccljicccb......",
"......acccijkllllkjiccca......",
"......#ccchjjjjjjjjhccc#......",
".......eccghiiiiiihgcce.......",
".......dfccccccccccccfd.......",
"........dfccccccccccfd........",
".........decccccccced.........",
"...........#abccba#...........",
"..............................",
"..............................",
"..............................",
"..............................",
"..............................",
".............................."
};
