/* XPM */
static char *menu_prelight[] = {
"30 30 17 1",
". c #2C2C2C",
"# c #353535",
"a c #424242",
"b c #4B4B4B",
"c c #4F4F4F",
"d c #333333",
"e c #464646",
"f c #4D4D4D",
"g c #7E7E7E",
"h c #C0C0C0",
"i c #ADADAD",
"j c #E6E6E6",
"k c #6B6B6B",
"l c #A4A4A4",
"m c #757575",
"n c #DDDDDD",
"o c #9A9A9A",
"..............................",
"..............................",
"..............................",
"..............................",
"..............................",
"..............................",
"...........#abccba#...........",
".........decccccccced.........",
"........dfccccccccccfd........",
".......dfccccccccccccfd.......",
".......ecccccccccccccce.......",
"......#cccccccccccccccc#......",
"......acccghhhhhhhhgccca......",
"......bcccijjjjjjjjicccb......",
"......cccckjjjjjjjjkcccc......",
"......ccccljjjjjjjjlcccc......",
"......bcccmnjjjjjjnmcccb......",
"......acccijjjjjjjjiccca......",
"......#ccckooooooookccc#......",
".......ecccccccccccccce.......",
".......dfccccccccccccfd.......",
"........dfccccccccccfd........",
".........decccccccced.........",
"...........#abccba#...........",
"..............................",
"..............................",
"..............................",
"..............................",
"..............................",
".............................."
};
