/* XPM */
static char *menu_pressed[] = {
"30 30 17 1",
". c #2C2C2C",
"# c #2A4A48",
"a c #287871",
"b c #27978C",
"c c #26A69A",
"d c #2B4341",
"e c #28887E",
"f c #269E93",
"g c #6AC2BA",
"h c #C9E9E6",
"i c #AEDED9",
"j c #FFFFFF",
"k c #4FB7AD",
"l c #A0D8D3",
"m c #5CBCB3",
"n c #F1F9F9",
"o c #92D2CC",
"..............................",
"..............................",
"..............................",
"..............................",
"..............................",
"..............................",
"...........#abccba#...........",
".........decccccccced.........",
"........dfccccccccccfd........",
".......dfccccccccccccfd.......",
".......ecccccccccccccce.......",
"......#cccccccccccccccc#......",
"......acccghhhhhhhhgccca......",
"......bcccijjjjjjjjicccb......",
"......cccckjjjjjjjjkcccc......",
"......ccccljjjjjjjjlcccc......",
"......bcccmnjjjjjjnmcccb......",
"......acccijjjjjjjjiccca......",
"......#ccckooooooookccc#......",
".......ecccccccccccccce.......",
".......dfccccccccccccfd.......",
"........dfccccccccccfd........",
".........decccccccced.........",
"...........#abccba#...........",
"..............................",
"..............................",
"..............................",
"..............................",
"..............................",
".............................."
};
