/* XPM */
static char *menu_inactive[] = {
"30 30 10 1",
". c #242424",
"# c #444444",
"a c #727272",
"b c #656565",
"c c #8C8C8C",
"d c #383838",
"e c #5E5E5E",
"f c #3E3E3E",
"g c #868686",
"h c #585858",
"..............................",
"..............................",
"..............................",
"..............................",
"..............................",
"..............................",
"..............................",
"..............................",
"..............................",
"..............................",
"..............................",
"..............................",
"..........#aaaaaaaa#..........",
"..........bccccccccb..........",
"..........dccccccccd..........",
"..........ecccccccce..........",
"..........fgccccccgf..........",
"..........bccccccccb..........",
"..........dhhhhhhhhd..........",
"..............................",
"..............................",
"..............................",
"..............................",
"..............................",
"..............................",
"..............................",
"..............................",
"..............................",
"..............................",
".............................."
};
