/* XPM */
static char *shade_toggled_prelight[] = {
"30 30 18 1",
". c #2C2C2C",
"# c #353535",
"a c #424242",
"b c #4B4B4B",
"c c #4F4F4F",
"d c #333333",
"e c #464646",
"f c #4D4D4D",
"g c #626262",
"h c #9A9A9A",
"i c #585858",
"j c #ADADAD",
"k c #E6E6E6",
"l c #CACACA",
"m c #6B6B6B",
"n c #DDDDDD",
"o c #D3D3D3",
"p c #B7B7B7",
"..............................",
"..............................",
"..............................",
"..............................",
"..............................",
"..............................",
"...........#abccba#...........",
".........decccccccced.........",
"........dfccccccccccfd........",
".......dfccccccccccccfd.......",
".......ecccccccccccccce.......",
"......#cccccccccccccccc#......",
"......acccghiccccihgccca......",
"......bcccjkliccilkjcccb......",
"......ccccmnkommoknmcccc......",
"......cccccmoknnkomccccc......",
"......bcccccilkklicccccb......",
"......accccccippicccccca......",
"......#cccccccccccccccc#......",
".......ecccccccccccccce.......",
".......dfccccccccccccfd.......",
"........dfccccccccccfd........",
".........decccccccced.........",
"...........#abccba#...........",
"..............................",
"..............................",
"..............................",
"..............................",
"..............................",
".............................."
};
