/* XPM */
static char *shade_toggled_inactive[] = {
"30 30 11 1",
". c #242424",
"# c #313131",
"a c #585858",
"b c #2A2A2A",
"c c #656565",
"d c #8C8C8C",
"e c #787878",
"f c #383838",
"g c #868686",
"h c #7F7F7F",
"i c #6C6C6C",
"..............................",
"..............................",
"..............................",
"..............................",
"..............................",
"..............................",
"..............................",
"..............................",
"..............................",
"..............................",
"..............................",
"..............................",
"..........#ab....ba#..........",
"..........cdeb..bedc..........",
"..........fgdhffhdgf..........",
"...........fhdggdhf...........",
"............beddeb............",
".............biib.............",
"..............................",
"..............................",
"..............................",
"..............................",
"..............................",
"..............................",
"..............................",
"..............................",
"..............................",
"..............................",
"..............................",
".............................."
};
