/* XPM */
static char *shade_toggled_pressed[] = {
"30 30 18 1",
". c #2C2C2C",
"# c #2A4A48",
"a c #287871",
"b c #27978C",
"c c #26A69A",
"d c #2B4341",
"e c #28887E",
"f c #269E93",
"g c #41B1A7",
"h c #92D2CC",
"i c #34ACA0",
"j c #AEDED9",
"k c #FFFFFF",
"l c #D6EEEC",
"m c #4FB7AD",
"n c #F1F9F9",
"o c #E4F4F2",
"p c #BBE3DF",
"..............................",
"..............................",
"..............................",
"..............................",
"..............................",
"..............................",
"...........#abccba#...........",
".........decccccccced.........",
"........dfccccccccccfd........",
".......dfccccccccccccfd.......",
".......ecccccccccccccce.......",
"......#cccccccccccccccc#......",
"......acccghiccccihgccca......",
"......bcccjkliccilkjcccb......",
"......ccccmnkommoknmcccc......",
"......cccccmoknnkomccccc......",
"......bcccccilkklicccccb......",
"......accccccippicccccca......",
"......#cccccccccccccccc#......",
".......ecccccccccccccce.......",
".......dfccccccccccccfd.......",
"........dfccccccccccfd........",
".........decccccccced.........",
"...........#abccba#...........",
"..............................",
"..............................",
"..............................",
"..............................",
"..............................",
".............................."
};
