/* XPM */
static char *shade_toggled_active[] = {
"30 30 18 1",
". c #2C2C2C",
"# c #303030",
"a c #373737",
"b c #3B3B3B",
"c c #3D3D3D",
"d c #2F2F2F",
"e c #393939",
"f c #3C3C3C",
"g c #525252",
"h c #929292",
"i c #484848",
"j c #A7A7A7",
"k c #E6E6E6",
"l c #C6C6C6",
"m c #5D5D5D",
"n c #DBDBDB",
"o c #D1D1D1",
"p c #B1B1B1",
"..............................",
"..............................",
"..............................",
"..............................",
"..............................",
"..............................",
"...........#abccba#...........",
".........decccccccced.........",
"........dfccccccccccfd........",
".......dfccccccccccccfd.......",
".......ecccccccccccccce.......",
"......#cccccccccccccccc#......",
"......acccghiccccihgccca......",
"......bcccjkliccilkjcccb......",
"......ccccmnkommoknmcccc......",
"......cccccmoknnkomccccc......",
"......bcccccilkklicccccb......",
"......accccccippicccccca......",
"......#cccccccccccccccc#......",
".......ecccccccccccccce.......",
".......dfccccccccccccfd.......",
"........dfccccccccccfd........",
".........decccccccced.........",
"...........#abccba#...........",
"..............................",
"..............................",
"..............................",
"..............................",
"..............................",
".............................."
};
