/* XPM */
static char *shade_inactive[] = {
"30 30 11 1",
". c #242424",
"# c #2A2A2A",
"a c #6C6C6C",
"b c #787878",
"c c #8C8C8C",
"d c #383838",
"e c #7F7F7F",
"f c #868686",
"g c #656565",
"h c #313131",
"i c #585858",
"..............................",
"..............................",
"..............................",
"..............................",
"..............................",
"..............................",
"..............................",
"..............................",
"..............................",
"..............................",
"..............................",
"..............................",
".............#aa#.............",
"............#bccb#............",
"...........decffced...........",
"..........dfceddecfd..........",
"..........gcb#..#bcg..........",
"..........hi#....#ih..........",
"..............................",
"..............................",
"..............................",
"..............................",
"..............................",
"..............................",
"..............................",
"..............................",
"..............................",
"..............................",
"..............................",
".............................."
};
