/* XPM */
static char *stick_toggled_prelight[] = {
"30 30 11 1",
". c #2C2C2C",
"# c #353535",
"a c #424242",
"b c #4B4B4B",
"c c #4F4F4F",
"d c #333333",
"e c #464646",
"f c #4D4D4D",
"g c #9A9A9A",
"h c #CACACA",
"i c #E6E6E6",
"..............................",
"..............................",
"..............................",
"..............................",
"..............................",
"..............................",
"...........#abccba#...........",
".........decccccccced.........",
"........dfccccccccccfd........",
".......dfccccccccccccfd.......",
".......ecccccccccccccce.......",
"......#cccccccccccccccc#......",
"......accccccghhgcccccca......",
"......bcccccgiiiigcccccb......",
"......cccccchiiiihcccccc......",
"......cccccchiiiihcccccc......",
"......bcccccgiiiigcccccb......",
"......accccccghhgcccccca......",
"......#cccccccccccccccc#......",
".......ecccccccccccccce.......",
".......dfccccccccccccfd.......",
"........dfccccccccccfd........",
".........decccccccced.........",
"...........#abccba#...........",
"..............................",
"..............................",
"..............................",
"..............................",
"..............................",
".............................."
};
