/* XPM */
static char *stick_active[] = {
"30 30 11 1",
". c #2C2C2C",
"# c #303030",
"a c #373737",
"b c #3B3B3B",
"c c #3D3D3D",
"d c #2F2F2F",
"e c #393939",
"f c #3C3C3C",
"g c #5D5D5D",
"h c #B1B1B1",
"i c #E6E6E6",
"..............................",
"..............................",
"..............................",
"..............................",
"..............................",
"..............................",
"...........#abccba#...........",
".........decccccccced.........",
"........dfccccccccccfd........",
".......dfccccccccccccfd.......",
".......ecccccccccccccce.......",
"......#cccccccccccccccc#......",
"......acccccccccccccccca......",
"......bccccccghhgccccccb......",
"......ccccccchiihccccccc......",
"......ccccccchiihccccccc......",
"......bccccccghhgccccccb......",
"......acccccccccccccccca......",
"......#cccccccccccccccc#......",
".......ecccccccccccccce.......",
".......dfccccccccccccfd.......",
"........dfccccccccccfd........",
".........decccccccced.........",
"...........#abccba#...........",
"..............................",
"..............................",
"..............................",
"..............................",
"..............................",
".............................."
};
