/* XPM */
static char *stick_inactive[] = {
"30 30 4 1",
". c #242424",
"# c #383838",
"a c #6C6C6C",
"b c #8C8C8C",
"..............................",
"..............................",
"..............................",
"..............................",
"..............................",
"..............................",
"..............................",
"..............................",
"..............................",
"..............................",
"..............................",
"..............................",
"..............................",
".............#aa#.............",
".............abba.............",
".............abba.............",
".............#aa#.............",
"..............................",
"..............................",
"..............................",
"..............................",
"..............................",
"..............................",
"..............................",
"..............................",
"..............................",
"..............................",
"..............................",
"..............................",
".............................."
};
