/* XPM */
static char *stick_toggled_inactive[] = {
"30 30 4 1",
". c #242424",
"# c #585858",
"a c #787878",
"b c #8C8C8C",
"..............................",
"..............................",
"..............................",
"..............................",
"..............................",
"..............................",
"..............................",
"..............................",
"..............................",
"..............................",
"..............................",
"..............................",
".............#aa#.............",
"............#bbbb#............",
"............abbbba............",
"............abbbba............",
"............#bbbb#............",
".............#aa#.............",
"..............................",
"..............................",
"..............................",
"..............................",
"..............................",
"..............................",
"..............................",
"..............................",
"..............................",
"..............................",
"..............................",
".............................."
};
