/* XPM */
static char *close_prelight[] = {
"30 30 10 1",
". c #FFFFFF",
"# c #FCD0CD",
"a c #F88A81",
"b c #F55A4F",
"c c #F44336",
"d c #FDDCD9",
"e c #F77268",
"f c #F54F43",
"g c #F6665C",
"h c #FBB8B4",
"..............................",
"..............................",
"..............................",
"..............................",
"..............................",
"..............................",
"...........#abccba#...........",
".........decccccccced.........",
"........dfccccccccccfd........",
".......dfccccccccccccfd.......",
".......eccghfccccfhgcce.......",
"......#ccch.dfccfd.hccc#......",
"......acccfd.dffd.dfccca......",
"......bccccfd.dd.dfccccb......",
"......ccccccfd..dfcccccc......",
"......ccccccfd..dfcccccc......",
"......bccccfd.dd.dfccccb......",
"......acccfd.dffd.dfccca......",
"......#ccch.dfccfd.hccc#......",
".......eccghfccccfhgcce.......",
".......dfccccccccccccfd.......",
"........dfccccccccccfd........",
".........decccccccced.........",
"...........#abccba#...........",
"..............................",
"..............................",
"..............................",
"..............................",
"..............................",
".............................."
};
