/* XPM */
static char *close_active[] = {
"30 30 10 1",
". c #FFFFFF",
"# c #FBD4D3",
"a c #F59492",
"b c #F16866",
"c c #EF5350",
"d c #FCDFDE",
"e c #F37E7C",
"f c #F05E5B",
"g c #F27371",
"h c #F9BEBD",
"..............................",
"..............................",
"..............................",
"..............................",
"..............................",
"..............................",
"...........#abccba#...........",
".........decccccccced.........",
"........dfccccccccccfd........",
".......dfccccccccccccfd.......",
".......eccghfccccfhgcce.......",
"......#ccch.dfccfd.hccc#......",
"......acccfd.dffd.dfccca......",
"......bccccfd.dd.dfccccb......",
"......ccccccfd..dfcccccc......",
"......ccccccfd..dfcccccc......",
"......bccccfd.dd.dfccccb......",
"......acccfd.dffd.dfccca......",
"......#ccch.dfccfd.hccc#......",
".......eccghfccccfhgcce.......",
".......dfccccccccccccfd.......",
"........dfccccccccccfd........",
".........decccccccced.........",
"...........#abccba#...........",
"..............................",
"..............................",
"..............................",
"..............................",
"..............................",
".............................."
};
