/* XPM */
static char *close_inactive[] = {
"30 30 11 1",
". c #F5F5F5",
"# c #F3F3F3",
"a c #EFEFEF",
"b c #EDEDED",
"c c #ECECEC",
"d c #EEEEEE",
"e c #DEDEDE",
"f c #BCBCBC",
"g c #E7E7E7",
"h c #A0A0A0",
"i c #AEAEAE",
"..............................",
"..............................",
"..............................",
"..............................",
"..............................",
"..............................",
"...........#abccba#...........",
".........#dccccccccd#.........",
"........#bccccccccccb#........",
".......#bccccccccccccb#.......",
".......dccefgccccgfeccd.......",
"......#cccfhigccgihfccc#......",
"......acccgihiggihigccca......",
"......bccccgihiihigccccb......",
"......ccccccgihhigcccccc......",
"......ccccccgihhigcccccc......",
"......bccccgihiihigccccb......",
"......acccgihiggihigccca......",
"......#cccfhigccgihfccc#......",
".......dccefgccccgfeccd.......",
".......#bccccccccccccb#.......",
"........#bccccccccccb#........",
".........#dccccccccd#.........",
"...........#abccba#...........",
"..............................",
"..............................",
"..............................",
"..............................",
"..............................",
".............................."
};
