/* XPM */
static char *hide_inactive[] = {
"30 30 6 1",
". c #F5F5F5",
"# c #EAEAEA",
"a c #CACACA",
"b c #C0C0C0",
"c c #A0A0A0",
"d c #E5E5E5",
"..............................",
"..............................",
"..............................",
"..............................",
"..............................",
"..............................",
"..............................",
"..............................",
"..............................",
"..............................",
"..............................",
"..............................",
"..............................",
"..............................",
"..........#aaaaaaaa#..........",
"..........bccccccccb..........",
"..........daaaaaaaad..........",
"..............................",
"..............................",
"..............................",
"..............................",
"..............................",
"..............................",
"..............................",
"..............................",
"..............................",
"..............................",
"..............................",
"..............................",
".............................."
};
