/* XPM */
static char *hide_prelight[] = {
"30 30 13 1",
". c #FFFFFF",
"# c #F6F6F6",
"a c #E9E9E9",
"b c #E0E0E0",
"c c #DCDCDC",
"d c #F8F8F8",
"e c #E5E5E5",
"f c #DEDEDE",
"g c #C8C8C8",
"h c #8C8C8C",
"i c #797979",
"j c #3D3D3D",
"k c #BEBEBE",
"..............................",
"..............................",
"..............................",
"..............................",
"..............................",
"..............................",
"...........#abccba#...........",
".........decccccccced.........",
"........dfccccccccccfd........",
".......dfccccccccccccfd.......",
".......ecccccccccccccce.......",
"......#cccccccccccccccc#......",
"......acccccccccccccccca......",
"......bccccccccccccccccb......",
"......ccccghhhhhhhhgcccc......",
"......ccccijjjjjjjjicccc......",
"......bccckhhhhhhhhkcccb......",
"......acccccccccccccccca......",
"......#cccccccccccccccc#......",
".......ecccccccccccccce.......",
".......dfccccccccccccfd.......",
"........dfccccccccccfd........",
".........decccccccced.........",
"...........#abccba#...........",
"..............................",
"..............................",
"..............................",
"..............................",
"..............................",
".............................."
};
