/* XPM */
static char *maximize_toggled_inactive[] = {
"30 30 10 1",
". c #F5F5F5",
"# c #EAEAEA",
"a c #B5B5B5",
"b c #CACACA",
"c c #E5E5E5",
"d c #A0A0A0",
"e c #E0E0E0",
"f c #D0D0D0",
"g c #B0B0B0",
"h c #A5A5A5",
"..............................",
"..............................",
"..............................",
"..............................",
"..............................",
"..............................",
"..............................",
"..............................",
"..............................",
"..............................",
"............#aaaaaab..........",
"............cdddddda..........",
"..........#eefbbffda..........",
"..........addddddfda..........",
"..........adgaahdbda..........",
"..........ade..adbda..........",
"..........ade..adfda..........",
"..........adfeegdec#..........",
"..........adddddde............",
"..........baaaaaa#............",
"..............................",
"..............................",
"..............................",
"..............................",
"..............................",
"..............................",
"..............................",
"..............................",
"..............................",
".............................."
};
