/* XPM */
static char *maximize_toggled_active[] = {
"30 30 17 1",
". c #FFFFFF",
"# c #FAFAFA",
"a c #F3F3F3",
"b c #EEEEEE",
"c c #ECECEC",
"d c #FBFBFB",
"e c #F1F1F1",
"f c #EDEDED",
"g c #D6D6D6",
"h c #696969",
"i c #949494",
"j c #CBCBCB",
"k c #3D3D3D",
"l c #C0C0C0",
"m c #9F9F9F",
"n c #5E5E5E",
"o c #484848",
"..............................",
"..............................",
"..............................",
"..............................",
"..............................",
"..............................",
"...........#abccba#...........",
".........decccccccced.........",
"........dfccccccccccfd........",
".......dfccccccccccccfd.......",
".......eccccghhhhhhicce.......",
"......#cccccjkkkkkkhccc#......",
"......acccgllmiimmkhccca......",
"......bccchkkkkkkmkhcccb......",
"......cccchknhhokikhcccc......",
"......cccchklcchkikhcccc......",
"......bccchklcchkmkhcccb......",
"......accchkmllnkljgccca......",
"......#ccchkkkkkklccccc#......",
".......eccihhhhhhgcccce.......",
".......dfccccccccccccfd.......",
"........dfccccccccccfd........",
".........decccccccced.........",
"...........#abccba#...........",
"..............................",
"..............................",
"..............................",
"..............................",
"..............................",
".............................."
};
