/* XPM */
static char *maximize_inactive[] = {
"30 30 7 1",
". c #F5F5F5",
"# c #F0F0F0",
"a c #D0D0D0",
"b c #CACACA",
"c c #A0A0A0",
"d c #A5A5A5",
"e c #B5B5B5",
"..............................",
"..............................",
"..............................",
"..............................",
"..............................",
"..............................",
"..............................",
"..............................",
"..............................",
"..............................",
"..........#abbbbbba#..........",
"..........acccccccca..........",
"..........bcdeeeedcb..........",
"..........bce....ecb..........",
"..........bce....ecb..........",
"..........bce....ecb..........",
"..........bce....ecb..........",
"..........bcdeeeedcb..........",
"..........acccccccca..........",
"..........#abbbbbba#..........",
"..............................",
"..............................",
"..............................",
"..............................",
"..............................",
"..............................",
"..............................",
"..............................",
"..............................",
".............................."
};
