/* XPM */
static char *maximize_toggled_pressed[] = {
"30 30 12 1",
". c #FFFFFF",
"# c #D6DBF8",
"a c #98A4EC",
"b c #7080E5",
"c c #5B6EE1",
"d c #E0E4F9",
"e c #8492E8",
"f c #6577E3",
"g c #ADB6F0",
"h c #7A89E7",
"i c #A3ADEE",
"j c #F5F6FD",
"..............................",
"..............................",
"..............................",
"..............................",
"..............................",
"..............................",
"...........#abccba#...........",
".........decccccccced.........",
"........dfccccccccccfd........",
".......dfccccccccccccfd.......",
".......eccccb######gcce.......",
"......#ccccch......#ccc#......",
"......acccbeeiggii.#ccca......",
"......bccc#......i.#cccb......",
"......cccc#.d##j.g.#cccc......",
"......cccc#.ecc#.g.#cccc......",
"......bccc#.ecc#.i.#cccb......",
"......accc#.ieed.ehbccca......",
"......#ccc#......eccccc#......",
".......eccg######bcccce.......",
".......dfccccccccccccfd.......",
"........dfccccccccccfd........",
".........decccccccced.........",
"...........#abccba#...........",
"..............................",
"..............................",
"..............................",
"..............................",
"..............................",
".............................."
};
