/* XPM */
static char *maximize_pressed[] = {
"30 30 11 1",
". c #FFFFFF",
"# c #D6DBF8",
"a c #98A4EC",
"b c #7080E5",
"c c #5B6EE1",
"d c #E0E4F9",
"e c #8492E8",
"f c #6577E3",
"g c #A3ADEE",
"h c #ADB6F0",
"i c #F5F6FD",
"..............................",
"..............................",
"..............................",
"..............................",
"..............................",
"..............................",
"...........#abccba#...........",
".........decccccccced.........",
"........dfccccccccccfd........",
".......dfccccccccccccfd.......",
".......eccfghhhhhhgfcce.......",
"......#cccg........gccc#......",
"......accch.i####i.hccca......",
"......bccch.#cccc#.hcccb......",
"......cccch.#cccc#.hcccc......",
"......cccch.#cccc#.hcccc......",
"......bccch.#cccc#.hcccb......",
"......accch.i####i.hccca......",
"......#cccg........gccc#......",
".......eccfghhhhhhgfcce.......",
".......dfccccccccccccfd.......",
"........dfccccccccccfd........",
".........decccccccced.........",
"...........#abccba#...........",
"..............................",
"..............................",
"..............................",
"..............................",
"..............................",
".............................."
};
