/* XPM */
static char *maximize_active[] = {
"30 30 14 1",
". c #FFFFFF",
"# c #FAFAFA",
"a c #F3F3F3",
"b c #EEEEEE",
"c c #ECECEC",
"d c #FBFBFB",
"e c #F1F1F1",
"f c #EDEDED",
"g c #E1E1E1",
"h c #9F9F9F",
"i c #949494",
"j c #3D3D3D",
"k c #484848",
"l c #696969",
"..............................",
"..............................",
"..............................",
"..............................",
"..............................",
"..............................",
"...........#abccba#...........",
".........decccccccced.........",
"........dfccccccccccfd........",
".......dfccccccccccccfd.......",
".......eccghiiiiiihgcce.......",
"......#ccchjjjjjjjjhccc#......",
"......acccijkllllkjiccca......",
"......bcccijlccccljicccb......",
"......ccccijlccccljicccc......",
"......ccccijlccccljicccc......",
"......bcccijlccccljicccb......",
"......acccijkllllkjiccca......",
"......#ccchjjjjjjjjhccc#......",
".......eccghiiiiiihgcce.......",
".......dfccccccccccccfd.......",
"........dfccccccccccfd........",
".........decccccccced.........",
"...........#abccba#...........",
"..............................",
"..............................",
"..............................",
"..............................",
"..............................",
".............................."
};
