/* XPM */
static char *menu_prelight[] = {
"30 30 17 1",
". c #FFFFFF",
"# c #F6F6F6",
"a c #E9E9E9",
"b c #E0E0E0",
"c c #DCDCDC",
"d c #F8F8F8",
"e c #E5E5E5",
"f c #DEDEDE",
"g c #AAAAAA",
"h c #656565",
"i c #797979",
"j c #3D3D3D",
"k c #BEBEBE",
"l c #838383",
"m c #B4B4B4",
"n c #474747",
"o c #8C8C8C",
"..............................",
"..............................",
"..............................",
"..............................",
"..............................",
"..............................",
"...........#abccba#...........",
".........decccccccced.........",
"........dfccccccccccfd........",
".......dfccccccccccccfd.......",
".......ecccccccccccccce.......",
"......#cccccccccccccccc#......",
"......acccghhhhhhhhgccca......",
"......bcccijjjjjjjjicccb......",
"......cccckjjjjjjjjkcccc......",
"......ccccljjjjjjjjlcccc......",
"......bcccmnjjjjjjnmcccb......",
"......acccijjjjjjjjiccca......",
"......#ccckooooooookccc#......",
".......ecccccccccccccce.......",
".......dfccccccccccccfd.......",
"........dfccccccccccfd........",
".........decccccccced.........",
"...........#abccba#...........",
"..............................",
"..............................",
"..............................",
"..............................",
"..............................",
".............................."
};
