/* XPM */
static char *menu_pressed[] = {
"30 30 14 1",
". c #FFFFFF",
"# c #D6DBF8",
"a c #98A4EC",
"b c #7080E5",
"c c #5B6EE1",
"d c #E0E4F9",
"e c #8492E8",
"f c #6577E3",
"g c #8E9BEA",
"h c #C2C9F4",
"i c #7A89E7",
"j c #B7C0F2",
"k c #F5F6FD",
"l c #ADB6F0",
"..............................",
"..............................",
"..............................",
"..............................",
"..............................",
"..............................",
"...........#abccba#...........",
".........decccccccced.........",
"........dfccccccccccfd........",
".......dfccccccccccccfd.......",
".......ecccccccccccccce.......",
"......#cccccccccccccccc#......",
"......acccg########gccca......",
"......bccch........hcccb......",
"......cccci........icccc......",
"......ccccj........jcccc......",
"......bcccek......kecccb......",
"......accch........hccca......",
"......#cccilllllllliccc#......",
".......ecccccccccccccce.......",
".......dfccccccccccccfd.......",
"........dfccccccccccfd........",
".........decccccccced.........",
"...........#abccba#...........",
"..............................",
"..............................",
"..............................",
"..............................",
"..............................",
".............................."
};
