/* XPM */
static char *menu_inactive[] = {
"30 30 10 1",
". c #F5F5F5",
"# c #DADADA",
"a c #B5B5B5",
"b c #C0C0C0",
"c c #A0A0A0",
"d c #E5E5E5",
"e c #C5C5C5",
"f c #E0E0E0",
"g c #A5A5A5",
"h c #CACACA",
"..............................",
"..............................",
"..............................",
"..............................",
"..............................",
"..............................",
"..............................",
"..............................",
"..............................",
"..............................",
"..............................",
"..............................",
"..........#aaaaaaaa#..........",
"..........bccccccccb..........",
"..........dccccccccd..........",
"..........ecccccccce..........",
"..........fgccccccgf..........",
"..........bccccccccb..........",
"..........dhhhhhhhhd..........",
"..............................",
"..............................",
"..............................",
"..............................",
"..............................",
"..............................",
"..............................",
"..............................",
"..............................",
"..............................",
".............................."
};
