/* XPM */
static char *shade_toggled_pressed[] = {
"30 30 14 1",
". c #FFFFFF",
"# c #D6DBF8",
"a c #98A4EC",
"b c #7080E5",
"c c #5B6EE1",
"d c #E0E4F9",
"e c #8492E8",
"f c #6577E3",
"g c #ADB6F0",
"h c #C2C9F4",
"i c #7A89E7",
"j c #F5F6FD",
"k c #EAEDFB",
"l c #CCD2F6",
"..............................",
"..............................",
"..............................",
"..............................",
"..............................",
"..............................",
"...........#abccba#...........",
".........decccccccced.........",
"........dfccccccccccfd........",
".......dfccccccccccccfd.......",
".......ecccccccccccccce.......",
"......#cccccccccccccccc#......",
"......acccbgfccccfgbccca......",
"......bccch.dfccfd.hcccb......",
"......ccccij.kiik.jicccc......",
"......cccccik.jj.kiccccc......",
"......bcccccfd..dfcccccb......",
"......accccccfllfcccccca......",
"......#cccccccccccccccc#......",
".......ecccccccccccccce.......",
".......dfccccccccccccfd.......",
"........dfccccccccccfd........",
".........decccccccced.........",
"...........#abccba#...........",
"..............................",
"..............................",
"..............................",
"..............................",
"..............................",
".............................."
};
