/* XPM */
static char *shade_inactive[] = {
"30 30 11 1",
". c #F5F5F5",
"# c #F0F0F0",
"a c #BBBBBB",
"b c #B0B0B0",
"c c #A0A0A0",
"d c #E5E5E5",
"e c #ABABAB",
"f c #A5A5A5",
"g c #C0C0C0",
"h c #EAEAEA",
"i c #CACACA",
"..............................",
"..............................",
"..............................",
"..............................",
"..............................",
"..............................",
"..............................",
"..............................",
"..............................",
"..............................",
"..............................",
"..............................",
".............#aa#.............",
"............#bccb#............",
"...........decffced...........",
"..........dfceddecfd..........",
"..........gcb#..#bcg..........",
"..........hi#....#ih..........",
"..............................",
"..............................",
"..............................",
"..............................",
"..............................",
"..............................",
"..............................",
"..............................",
"..............................",
"..............................",
"..............................",
".............................."
};
