/* XPM */
static char *shade_toggled_inactive[] = {
"30 30 11 1",
". c #F5F5F5",
"# c #EAEAEA",
"a c #CACACA",
"b c #F0F0F0",
"c c #C0C0C0",
"d c #A0A0A0",
"e c #B0B0B0",
"f c #E5E5E5",
"g c #A5A5A5",
"h c #ABABAB",
"i c #BBBBBB",
"..............................",
"..............................",
"..............................",
"..............................",
"..............................",
"..............................",
"..............................",
"..............................",
"..............................",
"..............................",
"..............................",
"..............................",
"..........#ab....ba#..........",
"..........cdeb..bedc..........",
"..........fgdhffhdgf..........",
"...........fhdggdhf...........",
"............beddeb............",
".............biib.............",
"..............................",
"..............................",
"..............................",
"..............................",
"..............................",
"..............................",
"..............................",
"..............................",
"..............................",
"..............................",
"..............................",
".............................."
};
