/* XPM */
static char *shade_prelight[] = {
"30 30 18 1",
". c #FFFFFF",
"# c #F6F6F6",
"a c #E9E9E9",
"b c #E0E0E0",
"c c #DCDCDC",
"d c #F8F8F8",
"e c #E5E5E5",
"f c #DEDEDE",
"g c #D2D2D2",
"h c #6F6F6F",
"i c #5B5B5B",
"j c #3D3D3D",
"k c #BEBEBE",
"l c #515151",
"m c #474747",
"n c #797979",
"o c #C8C8C8",
"p c #8C8C8C",
"..............................",
"..............................",
"..............................",
"..............................",
"..............................",
"..............................",
"...........#abccba#...........",
".........decccccccced.........",
"........dfccccccccccfd........",
".......dfccccccccccccfd.......",
".......ecccccccccccccce.......",
"......#cccccccccccccccc#......",
"......accccccghhgcccccca......",
"......bcccccgijjigcccccb......",
"......ccccckljmmjlkccccc......",
"......cccckmjlkkljmkcccc......",
"......bcccnjigccgijncccb......",
"......acccopgccccgpoccca......",
"......#cccccccccccccccc#......",
".......ecccccccccccccce.......",
".......dfccccccccccccfd.......",
"........dfccccccccccfd........",
".........decccccccced.........",
"...........#abccba#...........",
"..............................",
"..............................",
"..............................",
"..............................",
"..............................",
".............................."
};
