/* XPM */
static char *shade_toggled_active[] = {
"30 30 18 1",
". c #FFFFFF",
"# c #FAFAFA",
"a c #F3F3F3",
"b c #EEEEEE",
"c c #ECECEC",
"d c #FBFBFB",
"e c #F1F1F1",
"f c #EDEDED",
"g c #D6D6D6",
"h c #949494",
"i c #E1E1E1",
"j c #7F7F7F",
"k c #3D3D3D",
"l c #5E5E5E",
"m c #CBCBCB",
"n c #484848",
"o c #535353",
"p c #747474",
"..............................",
"..............................",
"..............................",
"..............................",
"..............................",
"..............................",
"...........#abccba#...........",
".........decccccccced.........",
"........dfccccccccccfd........",
".......dfccccccccccccfd.......",
".......ecccccccccccccce.......",
"......#cccccccccccccccc#......",
"......acccghiccccihgccca......",
"......bcccjkliccilkjcccb......",
"......ccccmnkommoknmcccc......",
"......cccccmoknnkomccccc......",
"......bcccccilkklicccccb......",
"......accccccippicccccca......",
"......#cccccccccccccccc#......",
".......ecccccccccccccce.......",
".......dfccccccccccccfd.......",
"........dfccccccccccfd........",
".........decccccccced.........",
"...........#abccba#...........",
"..............................",
"..............................",
"..............................",
"..............................",
"..............................",
".............................."
};
