/* XPM */
static char *shade_active[] = {
"30 30 18 1",
". c #FFFFFF",
"# c #FAFAFA",
"a c #F3F3F3",
"b c #EEEEEE",
"c c #ECECEC",
"d c #FBFBFB",
"e c #F1F1F1",
"f c #EDEDED",
"g c #E1E1E1",
"h c #747474",
"i c #5E5E5E",
"j c #3D3D3D",
"k c #CBCBCB",
"l c #535353",
"m c #484848",
"n c #7F7F7F",
"o c #D6D6D6",
"p c #949494",
"..............................",
"..............................",
"..............................",
"..............................",
"..............................",
"..............................",
"...........#abccba#...........",
".........decccccccced.........",
"........dfccccccccccfd........",
".......dfccccccccccccfd.......",
".......ecccccccccccccce.......",
"......#cccccccccccccccc#......",
"......accccccghhgcccccca......",
"......bcccccgijjigcccccb......",
"......ccccckljmmjlkccccc......",
"......cccckmjlkkljmkcccc......",
"......bcccnjigccgijncccb......",
"......acccopgccccgpoccca......",
"......#cccccccccccccccc#......",
".......ecccccccccccccce.......",
".......dfccccccccccccfd.......",
"........dfccccccccccfd........",
".........decccccccced.........",
"...........#abccba#...........",
"..............................",
"..............................",
"..............................",
"..............................",
"..............................",
".............................."
};
