/* XPM */
static char *shade_toggled_prelight[] = {
"30 30 18 1",
". c #FFFFFF",
"# c #F6F6F6",
"a c #E9E9E9",
"b c #E0E0E0",
"c c #DCDCDC",
"d c #F8F8F8",
"e c #E5E5E5",
"f c #DEDEDE",
"g c #C8C8C8",
"h c #8C8C8C",
"i c #D2D2D2",
"j c #797979",
"k c #3D3D3D",
"l c #5B5B5B",
"m c #BEBEBE",
"n c #474747",
"o c #515151",
"p c #6F6F6F",
"..............................",
"..............................",
"..............................",
"..............................",
"..............................",
"..............................",
"...........#abccba#...........",
".........decccccccced.........",
"........dfccccccccccfd........",
".......dfccccccccccccfd.......",
".......ecccccccccccccce.......",
"......#cccccccccccccccc#......",
"......acccghiccccihgccca......",
"......bcccjkliccilkjcccb......",
"......ccccmnkommoknmcccc......",
"......cccccmoknnkomccccc......",
"......bcccccilkklicccccb......",
"......accccccippicccccca......",
"......#cccccccccccccccc#......",
".......ecccccccccccccce.......",
".......dfccccccccccccfd.......",
"........dfccccccccccfd........",
".........decccccccced.........",
"...........#abccba#...........",
"..............................",
"..............................",
"..............................",
"..............................",
"..............................",
".............................."
};
