/* XPM */
static char *stick_toggled_inactive[] = {
"30 30 4 1",
". c #F5F5F5",
"# c #CACACA",
"a c #B0B0B0",
"b c #A0A0A0",
"..............................",
"..............................",
"..............................",
"..............................",
"..............................",
"..............................",
"..............................",
"..............................",
"..............................",
"..............................",
"..............................",
"..............................",
".............#aa#.............",
"............#bbbb#............",
"............abbbba............",
"............abbbba............",
"............#bbbb#............",
".............#aa#.............",
"..............................",
"..............................",
"..............................",
"..............................",
"..............................",
"..............................",
"..............................",
"..............................",
"..............................",
"..............................",
"..............................",
".............................."
};
