/* XPM */
static char *stick_pressed[] = {
"30 30 10 1",
". c #FFFFFF",
"# c #D6DBF8",
"a c #98A4EC",
"b c #7080E5",
"c c #5B6EE1",
"d c #E0E4F9",
"e c #8492E8",
"f c #6577E3",
"g c #7A89E7",
"h c #CCD2F6",
"..............................",
"..............................",
"..............................",
"..............................",
"..............................",
"..............................",
"...........#abccba#...........",
".........decccccccced.........",
"........dfccccccccccfd........",
".......dfccccccccccccfd.......",
".......ecccccccccccccce.......",
"......#cccccccccccccccc#......",
"......acccccccccccccccca......",
"......bccccccghhgccccccb......",
"......ccccccch..hccccccc......",
"......ccccccch..hccccccc......",
"......bccccccghhgccccccb......",
"......acccccccccccccccca......",
"......#cccccccccccccccc#......",
".......ecccccccccccccce.......",
".......dfccccccccccccfd.......",
"........dfccccccccccfd........",
".........decccccccced.........",
"...........#abccba#...........",
"..............................",
"..............................",
"..............................",
"..............................",
"..............................",
".............................."
};
