/* XPM */
static char *stick_prelight[] = {
"30 30 11 1",
". c #FFFFFF",
"# c #F6F6F6",
"a c #E9E9E9",
"b c #E0E0E0",
"c c #DCDCDC",
"d c #F8F8F8",
"e c #E5E5E5",
"f c #DEDEDE",
"g c #BEBEBE",
"h c #6F6F6F",
"i c #3D3D3D",
"..............................",
"..............................",
"..............................",
"..............................",
"..............................",
"..............................",
"...........#abccba#...........",
".........decccccccced.........",
"........dfccccccccccfd........",
".......dfccccccccccccfd.......",
".......ecccccccccccccce.......",
"......#cccccccccccccccc#......",
"......acccccccccccccccca......",
"......bccccccghhgccccccb......",
"......ccccccchiihccccccc......",
"......ccccccchiihccccccc......",
"......bccccccghhgccccccb......",
"......acccccccccccccccca......",
"......#cccccccccccccccc#......",
".......ecccccccccccccce.......",
".......dfccccccccccccfd.......",
"........dfccccccccccfd........",
".........decccccccced.........",
"...........#abccba#...........",
"..............................",
"..............................",
"..............................",
"..............................",
"..............................",
".............................."
};
