/* XPM */
static char *stick_toggled_pressed[] = {
"30 30 9 1",
". c #FFFFFF",
"# c #D6DBF8",
"a c #98A4EC",
"b c #7080E5",
"c c #5B6EE1",
"d c #E0E4F9",
"e c #8492E8",
"f c #6577E3",
"g c #ADB6F0",
"..............................",
"..............................",
"..............................",
"..............................",
"..............................",
"..............................",
"...........#abccba#...........",
".........decccccccced.........",
"........dfccccccccccfd........",
".......dfccccccccccccfd.......",
".......ecccccccccccccce.......",
"......#cccccccccccccccc#......",
"......accccccgddgcccccca......",
"......bcccccg....gcccccb......",
"......ccccccd....dcccccc......",
"......ccccccd....dcccccc......",
"......bcccccg....gcccccb......",
"......accccccgddgcccccca......",
"......#cccccccccccccccc#......",
".......ecccccccccccccce.......",
".......dfccccccccccccfd.......",
"........dfccccccccccfd........",
".........decccccccced.........",
"...........#abccba#...........",
"..............................",
"..............................",
"..............................",
"..............................",
"..............................",
".............................."
};
