/* XPM */
static char *stick_toggled_active[] = {
"30 30 11 1",
". c #FFFFFF",
"# c #FAFAFA",
"a c #F3F3F3",
"b c #EEEEEE",
"c c #ECECEC",
"d c #FBFBFB",
"e c #F1F1F1",
"f c #EDEDED",
"g c #949494",
"h c #5E5E5E",
"i c #3D3D3D",
"..............................",
"..............................",
"..............................",
"..............................",
"..............................",
"..............................",
"...........#abccba#...........",
".........decccccccced.........",
"........dfccccccccccfd........",
".......dfccccccccccccfd.......",
".......ecccccccccccccce.......",
"......#cccccccccccccccc#......",
"......accccccghhgcccccca......",
"......bcccccgiiiigcccccb......",
"......cccccchiiiihcccccc......",
"......cccccchiiiihcccccc......",
"......bcccccgiiiigcccccb......",
"......accccccghhgcccccca......",
"......#cccccccccccccccc#......",
".......ecccccccccccccce.......",
".......dfccccccccccccfd.......",
"........dfccccccccccfd........",
".........decccccccced.........",
"...........#abccba#...........",
"..............................",
"..............................",
"..............................",
"..............................",
"..............................",
".............................."
};
