/* XPM */
static char *stick_inactive[] = {
"30 30 4 1",
". c #F5F5F5",
"# c #E5E5E5",
"a c #BBBBBB",
"b c #A0A0A0",
"..............................",
"..............................",
"..............................",
"..............................",
"..............................",
"..............................",
"..............................",
"..............................",
"..............................",
"..............................",
"..............................",
"..............................",
"..............................",
".............#aa#.............",
".............abba.............",
".............abba.............",
".............#aa#.............",
"..............................",
"..............................",
"..............................",
"..............................",
"..............................",
"..............................",
"..............................",
"..............................",
"..............................",
"..............................",
"..............................",
"..............................",
".............................."
};
